kazupu2025/dx-portfolio/02_manufacturing/03_cost_variance/output/cleaned_production_cost_202401.csv
product_id,product_name,production_date,line_id,planned_qty,actual_qty,planned_material,actual_material,planned_labor,actual_labor,planned_overhead,actual_overhead,source_file,material_variance,labor_variance,overhead_variance,planned_total_cost,actual_total_cost,total_variance,variance_ratio,qty_variance,variance_flag
P001,部品A,2024-01-01,ライン1,78,59,83482.0,96578.0,64188.0,53583.0,37068.0,35910.0,production_cost_styleA_202401.csv,13096.0,-10605.0,-1158.0,184738.0,186071.0,1333.0,0.007215624289534367,-19,正常
P002,部品B,2024-01-01,ライン1,57,43,140303.0,151601.0,53675.0,51947.0,38641.0,37856.0,production_cost_styleA_202401.csv,11298.0,-1728.0,-785.0,232619.0,241404.0,8785.0,0.03776561673809964,-14,正常
P003,部品C,2024-01-01,ライン1,121,109,170873.0,147325.0,61888.0,73207.0,23610.0,22067.0,production_cost_styleA_202401.csv,-23548.0,11319.0,-1543.0,256371.0,242599.0,-13772.0,-0.05371902438263298,-12,正常
P004,部品D,2024-01-01,ライン1,73,70,101593.0,99944.0,35871.0,30488.0,11738.0,13721.0,production_cost_styleA_202401.csv,-1649.0,-5383.0,1983.0,149202.0,144153.0,-5049.0,-0.03384002895403547,-3,正常
P005,部品E,2024-01-01,ライン1,70,74,142778.0,154461.0,71702.0,58676.0,33094.0,29492.0,production_cost_styleA_202401.csv,11683.0,-13026.0,-3602.0,247574.0,242629.0,-4945.0,-0.019973826007577532,4,正常
P006,ユニットX,2024-01-01,ライン1,124,132,179973.0,204025.0,42808.0,37031.0,28136.0,26508.0,production_cost_styleA_202401.csv,24052.0,-5777.0,-1628.0,250917.0,267564.0,16647.0,0.06634464783175313,8,正常
P007,ユニットY,2024-01-01,ライン1,118,122,60710.0,54513.0,58099.0,57222.0,31366.0,28479.0,production_cost_styleA_202401.csv,-6197.0,-877.0,-2887.0,150175.0,140214.0,-9961.0,-0.06632928250374563,4,正常
P008,ユニットZ,2024-01-01,ライン1,192,185,165247.0,185410.0,23356.0,22433.0,42872.0,35433.0,production_cost_styleA_202401.csv,20163.0,-923.0,-7439.0,231475.0,243276.0,11801.0,0.05098174748892969,-7,正常
P009,製品P,2024-01-01,ライン1,195,187,148316.0,145875.0,43738.0,39624.0,46582.0,41861.0,production_cost_styleA_202401.csv,-2441.0,-4114.0,-4721.0,238636.0,227360.0,-11276.0,-0.047251881526676615,-8,正常
P010,製品Q,2024-01-01,ライン1,193,202,114265.0,136996.0,55012.0,47054.0,24480.0,24416.0,production_cost_styleA_202401.csv,22731.0,-7958.0,-64.0,193757.0,208466.0,14709.0,0.07591467663103785,9,正常
P011,PartA,2024-01-01,ライン1,62,57,73997.0,70587.0,60829.0,63162.0,33856.0,33424.0,production_cost_styleA_202401.csv,-3410.0,2333.0,-432.0,168682.0,167173.0,-1509.0,-0.008945827059200152,-5,正常
P012,PartB,2024-01-01,ライン1,114,122,51722.0,52487.0,63243.0,57345.0,37268.0,39370.0,production_cost_styleA_202401.csv,765.0,-5898.0,2102.0,152233.0,149202.0,-3031.0,-0.01991026912693043,8,正常
P013,PartC,2024-01-01,ライン1,78,72,50487.0,60016.0,63326.0,69961.0,38787.0,38906.0,production_cost_styleA_202401.csv,9529.0,6635.0,119.0,152600.0,168883.0,16283.0,0.1067038007863696,-6,超過
P014,SubAsmX,2024-01-01,ライン1,77,73,145842.0,161157.0,56538.0,57429.0,16114.0,17909.0,production_cost_styleA_202401.csv,15315.0,891.0,1795.0,218494.0,236495.0,18001.0,0.0823867016943257,-4,正常
P015,SubAsmY,2024-01-01,ライン1,185,188,123291.0,147225.0,26712.0,29990.0,24519.0,21964.0,production_cost_styleA_202401.csv,23934.0,3278.0,-2555.0,174522.0,199179.0,24657.0,0.14128304740949565,3,超過
P016,FinGoodA,2024-01-01,ライン1,111,120,62848.0,69399.0,49159.0,54387.0,12769.0,10871.0,production_cost_styleA_202401.csv,6551.0,5228.0,-1898.0,124776.0,134657.0,9881.0,0.07918990831570173,9,正常
P017,FinGoodB,2024-01-01,ライン1,171,159,129151.0,151309.0,56396.0,62154.0,48575.0,52264.0,production_cost_styleA_202401.csv,22158.0,5758.0,3689.0,234122.0,265727.0,31605.0,0.13499372122226874,-12,超過
P018,FinGoodC,2024-01-01,ライン1,129,133,106013.0,95323.0,73977.0,61076.0,28059.0,22684.0,production_cost_styleA_202401.csv,-10690.0,-12901.0,-5375.0,208049.0,179083.0,-28966.0,-0.13922681675951337,4,節約
P019,FinGoodD,2024-01-01,ライン1,191,180,60649.0,70484.0,57866.0,66190.0,19158.0,15869.0,production_cost_styleA_202401.csv,9835.0,8324.0,-3289.0,137673.0,152543.0,14870.0,0.10800955888227902,-11,超過
P020,FinGoodE,2024-01-01,ライン1,110,109,130885.0,134875.0,63401.0,56883.0,45295.0,44806.0,production_cost_styleA_202401.csv,3990.0,-6518.0,-489.0,239581.0,236564.0,-3017.0,-0.012592818295273832,-1,正常
P001,部品A,2024-01-01,ライン2,154,141,114658.0,125164.0,45415.0,48564.0,28681.0,34236.0,production_cost_styleA_202401.csv,10506.0,3149.0,5555.0,188754.0,207964.0,19210.0,0.10177267766510908,-13,超過
P002,部品B,2024-01-01,ライン2,75,66,170089.0,172558.0,26556.0,22734.0,17664.0,15427.0,production_cost_styleA_202401.csv,2469.0,-3822.0,-2237.0,214309.0,210719.0,-3590.0,-0.016751513002253755,-9,正常
P003,部品C,2024-01-01,ライン2,168,182,116470.0,95532.0,71681.0,85997.0,32013.0,36316.0,production_cost_styleA_202401.csv,-20938.0,14316.0,4303.0,220164.0,217845.0,-2319.0,-0.010533057175560037,14,正常
P004,部品D,2024-01-01,ライン2,73,78,74947.0,71980.0,49138.0,40463.0,18550.0,17652.0,production_cost_styleA_202401.csv,-2967.0,-8675.0,-898.0,142635.0,130095.0,-12540.0,-0.08791671048480387,5,正常
P005,部品E,2024-01-01,ライン2,149,157,118251.0,141685.0,45380.0,46393.0,48293.0,52512.0,production_cost_styleA_202401.csv,23434.0,1013.0,4219.0,211924.0,240590.0,28666.0,0.13526547252788734,8,超過
P006,ユニットX,2024-01-01,ライン2,89,83,58772.0,54391.0,64144.0,52602.0,12438.0,12323.0,production_cost_styleA_202401.csv,-4381.0,-11542.0,-115.0,135354.0,119316.0,-16038.0,-0.11848929473824195,-6,節約
P007,ユニットY,2024-01-01,ライン2,185,202,62017.0,66363.0,31149.0,27850.0,33801.0,28662.0,production_cost_styleA_202401.csv,4346.0,-3299.0,-5139.0,126967.0,122875.0,-4092.0,-0.032228846865721014,17,正常
P008,ユニットZ,2024-01-01,ライン2,195,198,142907.0,144210.0,45153.0,53005.0,33347.0,29402.0,production_cost_styleA_202401.csv,1303.0,7852.0,-3945.0,221407.0,226617.0,5210.0,0.023531324664531835,3,正常
P009,製品P,2024-01-01,ライン2,130,127,150754.0,165941.0,38000.0,31503.0,22647.0,22269.0,production_cost_styleA_202401.csv,15187.0,-6497.0,-378.0,211401.0,219713.0,8312.0,0.039318640876817045,-3,正常
P010,製品Q,2024-01-01,ライン2,194,177,81973.0,94461.0,35912.0,41360.0,47330.0,44860.0,production_cost_styleA_202401.csv,12488.0,5448.0,-2470.0,165215.0,180681.0,15466.0,0.09361135490118935,-17,正常
P011,PartA,2024-01-01,ライン2,90,90,95378.0,96482.0,79031.0,84338.0,42284.0,43208.0,production_cost_styleA_202401.csv,1104.0,5307.0,924.0,216693.0,224028.0,7335.0,0.03384973210948208,0,正常
P012,PartB,2024-01-01,ライン2,76,70,67314.0,61185.0,26422.0,27530.0,32129.0,34926.0,production_cost_styleA_202401.csv,-6129.0,1108.0,2797.0,125865.0,123641.0,-2224.0,-0.01766972549954316,-6,正常
P013,PartC,2024-01-01,ライン2,102,109,125811.0,103206.0,35067.0,36951.0,46326.0,52429.0,production_cost_styleA_202401.csv,-22605.0,1884.0,6103.0,207204.0,192586.0,-14618.0,-0.07054883110364665,7,正常
P014,SubAsmX,2024-01-01,ライン2,61,54,145567.0,148576.0,35717.0,34684.0,39649.0,31873.0,production_cost_styleA_202401.csv,3009.0,-1033.0,-7776.0,220933.0,215133.0,-5800.0,-0.02625230273431312,-7,正常
P015,SubAsmY,2024-01-01,ライン2,69,71,72358.0,73878.0,22162.0,21539.0,24769.0,20229.0,production_cost_styleA_202401.csv,1520.0,-623.0,-4540.0,119289.0,115646.0,-3643.0,-0.030539278558794188,2,正常
P016,FinGoodA,2024-01-01,ライン2,143,151,179105.0,161161.0,73935.0,62188.0,18403.0,20465.0,production_cost_styleA_202401.csv,-17944.0,-11747.0,2062.0,271443.0,243814.0,-27629.0,-0.10178564192113998,8,節約
P017,FinGoodB,2024-01-01,ライン2,154,161,188865.0,211520.0,34204.0,29786.0,16500.0,15921.0,production_cost_styleA_202401.csv,22655.0,-4418.0,-579.0,239569.0,257227.0,17658.0,0.07370736614503547,7,正常
P018,FinGoodC,2024-01-01,ライン2,95,91,189622.0,213192.0,68134.0,61779.0,44563.0,49685.0,production_cost_styleA_202401.csv,23570.0,-6355.0,5122.0,302319.0,324656.0,22337.0,0.07388553150810899,-4,正常
P019,FinGoodD,2024-01-01,ライン2,77,69,120604.0,113351.0,31974.0,36074.0,46738.0,53680.0,production_cost_styleA_202401.csv,-7253.0,4100.0,6942.0,199316.0,203105.0,3789.0,0.01901001424873066,-8,正常
P020,FinGoodE,2024-01-01,ライン2,107,80,99239.0,90472.0,71861.0,75928.0,48676.0,46722.0,production_cost_styleA_202401.csv,-8767.0,4067.0,-1954.0,219776.0,213122.0,-6654.0,-0.030276281304601048,-27,正常
P001,部品A,2024-01-01,ライン3,187,169,181556.0,216672.0,35673.0,29084.0,33224.0,34507.0,production_cost_styleA_202401.csv,35116.0,-6589.0,1283.0,250453.0,280263.0,29810.0,0.11902432791781292,-18,超過
P002,部品B,2024-01-01,ライン3,138,132,140931.0,145249.0,50685.0,45713.0,25408.0,27530.0,production_cost_styleA_202401.csv,4318.0,-4972.0,2122.0,217024.0,218492.0,1468.0,0.006764228841049838,-6,正常
P003,部品C,2024-01-01,ライン3,50,53,153029.0,134484.0,76416.0,74316.0,39482.0,46570.0,production_cost_styleA_202401.csv,-18545.0,-2100.0,7088.0,268927.0,255370.0,-13557.0,-0.05041144994738349,3,正常
P004,部品D,2024-01-01,ライン3,134,138,68694.0,73280.0,74003.0,68858.0,30285.0,32674.0,production_cost_styleA_202401.csv,4586.0,-5145.0,2389.0,172982.0,174812.0,1830.0,0.010579135401371242,4,正常
P005,部品E,2024-01-01,ライン3,191,187,191055.0,199882.0,60639.0,55811.0,46112.0,46996.0,production_cost_styleA_202401.csv,8827.0,-4828.0,884.0,297806.0,302689.0,4883.0,0.01639658032410361,-4,正常
P006,ユニットX,2024-01-01,ライン3,50,47,167864.0,163955.0,56400.0,60362.0,22890.0,22992.0,production_cost_styleA_202401.csv,-3909.0,3962.0,102.0,247154.0,247309.0,155.0,0.0006271393544106104,-3,正常
P007,ユニットY,2024-01-01,ライン3,93,88,149578.0,176622.0,57156.0,51094.0,13735.0,12694.0,production_cost_styleA_202401.csv,27044.0,-6062.0,-1041.0,220469.0,240410.0,19941.0,0.0904480902076936,-5,正常
P008,ユニットZ,2024-01-01,ライン3,100,90,197590.0,194067.0,56676.0,65430.0,40740.0,41973.0,production_cost_styleA_202401.csv,-3523.0,8754.0,1233.0,295006.0,301470.0,6464.0,0.02191141875080507,-10,正常
P009,製品P,2024-01-01,ライン3,148,140,148409.0,164440.0,20333.0,17133.0,40039.0,38840.0,production_cost_styleA_202401.csv,16031.0,-3200.0,-1199.0,208781.0,220413.0,11632.0,0.05571388201033619,-8,正常
P010,製品Q,2024-01-01,ライン3,95,98,119682.0,101556.0,53444.0,45606.0,46699.0,46038.0,production_cost_styleA_202401.csv,-18126.0,-7838.0,-661.0,219825.0,193200.0,-26625.0,-0.12111907198908223,3,節約
P011,PartA,2024-01-01,ライン3,185,188,192506.0,209391.0,73486.0,73626.0,34506.0,39069.0,production_cost_styleA_202401.csv,16885.0,140.0,4563.0,300498.0,322086.0,21588.0,0.07184074436435517,3,正常
P012,PartB,2024-01-01,ライン3,190,177,179224.0,203589.0,47004.0,42817.0,40071.0,44522.0,production_cost_styleA_202401.csv,24365.0,-4187.0,4451.0,266299.0,290928.0,24629.0,0.0924862654384733,-13,正常
P013,PartC,2024-01-01,ライン3,174,166,61623.0,57179.0,37144.0,37740.0,20869.0,17850.0,production_cost_styleA_202401.csv,-4444.0,596.0,-3019.0,119636.0,112769.0,-6867.0,-0.057399110635594636,-8,正常
P014,SubAsmX,2024-01-01,ライン3,109,101,82093.0,80974.0,44892.0,37032.0,23235.0,26329.0,production_cost_styleA_202401.csv,-1119.0,-7860.0,3094.0,150220.0,144335.0,-5885.0,-0.03917587538277193,-8,正常
P015,SubAsmY,2024-01-01,ライン3,149,151,154328.0,146944.0,71404.0,57292.0,40624.0,38215.0,production_cost_styleA_202401.csv,-7384.0,-14112.0,-2409.0,266356.0,242451.0,-23905.0,-0.08974830677739566,2,正常
P016,FinGoodA,2024-01-01,ライン3,149,162,112853.0,117514.0,64851.0,57602.0,31845.0,28271.0,production_cost_styleA_202401.csv,4661.0,-7249.0,-3574.0,209549.0,203387.0,-6162.0,-0.029406010050155335,13,正常
P017,FinGoodB,2024-01-01,ライン3,161,157,150331.0,170806.0,67889.0,79281.0,38967.0,46460.0,production_cost_styleA_202401.csv,20475.0,11392.0,7493.0,257187.0,296547.0,39360.0,0.15304039473223763,-4,超過
P018,FinGoodC,2024-01-01,ライン3,186,148,134659.0,115036.0,21626.0,21295.0,35710.0,29286.0,production_cost_styleA_202401.csv,-19623.0,-331.0,-6424.0,191995.0,165617.0,-26378.0,-0.13738899450506523,-38,節約
P019,FinGoodD,2024-01-01,ライン3,147,145,100625.0,118786.0,72778.0,70495.0,21130.0,23961.0,production_cost_styleA_202401.csv,18161.0,-2283.0,2831.0,194533.0,213242.0,18709.0,0.09617391393748105,-2,正常
P020,FinGoodE,2024-01-01,ライン3,170,141,199986.0,222483.0,40998.0,43486.0,36006.0,39667.0,production_cost_styleA_202401.csv,22497.0,2488.0,3661.0,276990.0,305636.0,28646.0,0.10341889598902487,-29,超過
P001,部品A,2024-01-02,ライン1,113,102,72857.0,74722.0,27573.0,24463.0,36778.0,39713.0,production_cost_styleA_202401.csv,1865.0,-3110.0,2935.0,137208.0,138898.0,1690.0,0.01231706606028803,-11,正常
P002,部品B,2024-01-02,ライン1,144,147,162189.0,192338.0,26872.0,22660.0,42772.0,34657.0,production_cost_styleA_202401.csv,30149.0,-4212.0,-8115.0,231833.0,249655.0,17822.0,0.07687430176031886,3,正常
P003,部品C,2024-01-02,ライン1,129,139,106296.0,110212.0,76488.0,86602.0,17933.0,16089.0,production_cost_styleA_202401.csv,3916.0,10114.0,-1844.0,200717.0,212903.0,12186.0,0.06071234623873414,10,正常
P004,部品D,2024-01-02,ライン1,127,129,68158.0,63993.0,79031.0,76767.0,41305.0,39167.0,production_cost_styleA_202401.csv,-4165.0,-2264.0,-2138.0,188494.0,179927.0,-8567.0,-0.0454497225375874,2,正常
P005,部品E,2024-01-02,ライン1,179,161,113009.0,106779.0,49412.0,57152.0,27341.0,26901.0,production_cost_styleA_202401.csv,-6230.0,7740.0,-440.0,189762.0,190832.0,1070.0,0.0056386420885108715,-18,正常
P006,ユニットX,2024-01-02,ライン1,89,93,194821.0,197796.0,36205.0,35966.0,42328.0,41237.0,production_cost_styleA_202401.csv,2975.0,-239.0,-1091.0,273354.0,274999.0,1645.0,0.006017837675687936,4,正常
P007,ユニットY,2024-01-02,ライン1,118,111,190193.0,209249.0,36736.0,37762.0,28032.0,29918.0,production_cost_styleA_202401.csv,19056.0,1026.0,1886.0,254961.0,276929.0,21968.0,0.086162197355674,-7,正常
P008,ユニットZ,2024-01-02,ライン1,136,124,77276.0,72341.0,32727.0,37706.0,41913.0,45286.0,production_cost_styleA_202401.csv,-4935.0,4979.0,3373.0,151916.0,155333.0,3417.0,0.022492693330524765,-12,正常
P009,製品P,2024-01-02,ライン1,120,120,78658.0,80394.0,34481.0,30900.0,26257.0,26006.0,production_cost_styleA_202401.csv,1736.0,-3581.0,-251.0,139396.0,137300.0,-2096.0,-0.015036299463399237,0,正常
P010,製品Q,2024-01-02,ライン1,175,158,94135.0,100309.0,44264.0,41945.0,19732.0,20154.0,production_cost_styleA_202401.csv,6174.0,-2319.0,422.0,158131.0,162408.0,4277.0,0.027047195047144455,-17,正常
P011,PartA,2024-01-02,ライン1,138,144,99619.0,89713.0,62171.0,52738.0,20837.0,18274.0,production_cost_styleA_202401.csv,-9906.0,-9433.0,-2563.0,182627.0,160725.0,-21902.0,-0.11992750250510603,6,節約
P012,PartB,2024-01-02,ライン1,80,87,153525.0,139799.0,31492.0,32621.0,39544.0,43660.0,production_cost_styleA_202401.csv,-13726.0,1129.0,4116.0,224561.0,216080.0,-8481.0,-0.037767020987615835,7,正常
P013,PartC,2024-01-02,ライン1,122,130,94437.0,102295.0,41653.0,35431.0,22091.0,18075.0,production_cost_styleA_202401.csv,7858.0,-6222.0,-4016.0,158181.0,155801.0,-2380.0,-0.015046054835915817,8,正常
P014,SubAsmX,2024-01-02,ライン1,63,65,68942.0,79220.0,72108.0,74244.0,29635.0,29272.0,production_cost_styleA_202401.csv,10278.0,2136.0,-363.0,170685.0,182736.0,12051.0,0.07060374373846559,2,正常
P015,SubAsmY,2024-01-02,ライン1,162,177,87872.0,72594.0,71703.0,71467.0,14563.0,15012.0,production_cost_styleA_202401.csv,-15278.0,-236.0,449.0,174138.0,159073.0,-15065.0,-0.08651184692600122,15,正常
P016,FinGoodA,2024-01-02,ライン1,63,66,192369.0,196837.0,25111.0,24269.0,19928.0,20694.0,production_cost_styleA_202401.csv,4468.0,-842.0,766.0,237408.0,241800.0,4392.0,0.018499797816417307,3,正常
P017,FinGoodB,2024-01-02,ライン1,107,104,186276.0,180973.0,37841.0,38880.0,33541.0,27641.0,production_cost_styleA_202401.csv,-5303.0,1039.0,-5900.0,257658.0,247494.0,-10164.0,-0.039447639894744195,-3,正常
P018,FinGoodC,2024-01-02,ライン1,75,70,81654.0,71000.0,59626.0,49491.0,16282.0,13043.0,production_cost_styleA_202401.csv,-10654.0,-10135.0,-3239.0,157562.0,133534.0,-24028.0,-0.15249869892486767,-5,節約
P019,FinGoodD,2024-01-02,ライン1,165,164,54896.0,62792.0,37286.0,30891.0,21309.0,19037.0,production_cost_styleA_202401.csv,7896.0,-6395.0,-2272.0,113491.0,112720.0,-771.0,-0.006793490232705677,-1,正常
P020,FinGoodE,2024-01-02,ライン1,117,119,149177.0,151837.0,76020.0,80509.0,27006.0,31417.0,production_cost_styleA_202401.csv,2660.0,4489.0,4411.0,252203.0,263763.0,11560.0,0.04583609235417501,2,正常
P001,部品A,2024-01-02,ライン2,86,63,96142.0,88012.0,64937.0,55180.0,32768.0,35241.0,production_cost_styleA_202401.csv,-8130.0,-9757.0,2473.0,193847.0,178433.0,-15414.0,-0.07951631957162092,-23,正常
P002,部品B,2024-01-02,ライン2,153,153,124069.0,120696.0,24827.0,23062.0,11594.0,10437.0,production_cost_styleA_202401.csv,-3373.0,-1765.0,-1157.0,160490.0,154195.0,-6295.0,-0.03922362764035142,0,正常
P003,部品C,2024-01-02,ライン2,73,75,179078.0,198043.0,55227.0,62328.0,10830.0,11160.0,production_cost_styleA_202401.csv,18965.0,7101.0,330.0,245135.0,271531.0,26396.0,0.10767944194015543,2,超過
P004,部品D,2024-01-02,ライン2,94,96,187411.0,197515.0,30889.0,30787.0,33413.0,27950.0,production_cost_styleA_202401.csv,10104.0,-102.0,-5463.0,251713.0,256252.0,4539.0,0.018032441709407144,2,正常
P005,部品E,2024-01-02,ライン2,139,134,65690.0,65571.0,29649.0,31578.0,26466.0,25412.0,production_cost_styleA_202401.csv,-119.0,1929.0,-1054.0,121805.0,122561.0,756.0,0.006206641763474406,-5,正常
P006,ユニットX,2024-01-02,ライン2,190,137,87860.0,100684.0,26955.0,30459.0,40902.0,32740.0,production_cost_styleA_202401.csv,12824.0,3504.0,-8162.0,155717.0,163883.0,8166.0,0.05244128772067276,-53,正常
P007,ユニットY,2024-01-02,ライン2,188,171,127766.0,124804.0,57358.0,47071.0,29940.0,27150.0,production_cost_styleA_202401.csv,-2962.0,-10287.0,-2790.0,215064.0,199025.0,-16039.0,-0.0745778000967154,-17,正常
P008,ユニットZ,2024-01-02,ライン2,83,81,154738.0,161476.0,27286.0,24440.0,48926.0,42240.0,production_cost_styleA_202401.csv,6738.0,-2846.0,-6686.0,230950.0,228156.0,-2794.0,-0.012097856678934834,-2,正常
P009,製品P,2024-01-02,ライン2,191,153,83705.0,98674.0,70484.0,74649.0,14538.0,12526.0,production_cost_styleA_202401.csv,14969.0,4165.0,-2012.0,168727.0,185849.0,17122.0,0.10147753471584275,-38,超過
P010,製品Q,2024-01-02,ライン2,124,118,175209.0,178801.0,78815.0,75145.0,19749.0,23082.0,production_cost_styleA_202401.csv,3592.0,-3670.0,3333.0,273773.0,277028.0,3255.0,0.011889412031135284,-6,正常
P011,PartA,2024-01-02,ライン2,180,166,60472.0,56598.0,66361.0,73998.0,44176.0,40062.0,production_cost_styleA_202401.csv,-3874.0,7637.0,-4114.0,171009.0,170658.0,-351.0,-0.002052523551392032,-14,正常
P012,PartB,2024-01-02,ライン2,50,47,138041.0,118637.0,79934.0,81168.0,29586.0,27753.0,production_cost_styleA_202401.csv,-19404.0,1234.0,-1833.0,247561.0,227558.0,-20003.0,-0.080800287605883,-3,正常
P013,PartC,2024-01-02,ライン2,191,186,189928.0,170085.0,72176.0,68797.0,49231.0,56242.0,production_cost_styleA_202401.csv,-19843.0,-3379.0,7011.0,311335.0,295124.0,-16211.0,-0.05206931440409848,-5,正常
P014,SubAsmX,2024-01-02,ライン2,155,137,155784.0,165984.0,68685.0,77497.0,25443.0,30337.0,production_cost_styleA_202401.csv,10200.0,8812.0,4894.0,249912.0,273818.0,23906.0,0.09565767150036814,-18,正常
P015,SubAsmY,2024-01-02,ライン2,176,162,194803.0,221689.0,39920.0,33528.0,14015.0,16315.0,production_cost_styleA_202401.csv,26886.0,-6392.0,2300.0,248738.0,271532.0,22794.0,0.09163859161044954,-14,正常
P016,FinGoodA,2024-01-02,ライン2,53,52,148217.0,176035.0,29262.0,27372.0,28780.0,30998.0,production_cost_styleA_202401.csv,27818.0,-1890.0,2218.0,206259.0,234405.0,28146.0,0.13645949994909312,-1,超過
P017,FinGoodB,2024-01-02,ライン2,70,74,178901.0,194553.0,42801.0,47242.0,22666.0,26043.0,production_cost_styleA_202401.csv,15652.0,4441.0,3377.0,244368.0,267838.0,23470.0,0.09604367183919335,4,正常
P018,FinGoodC,2024-01-02,ライン2,59,55,152660.0,127647.0,37243.0,44369.0,19099.0,21089.0,production_cost_styleA_202401.csv,-25013.0,7126.0,1990.0,209002.0,193105.0,-15897.0,-0.07606147309595124,-4,正常
P019,FinGoodD,2024-01-02,ライン2,75,77,185514.0,170180.0,22759.0,21620.0,41846.0,35913.0,production_cost_styleA_202401.csv,-15334.0,-1139.0,-5933.0,250119.0,227713.0,-22406.0,-0.08958135927298606,2,正常
P020,FinGoodE,2024-01-02,ライン2,185,191,77009.0,73390.0,30504.0,32739.0,34380.0,34348.0,production_cost_styleA_202401.csv,-3619.0,2235.0,-32.0,141893.0,140477.0,-1416.0,-0.009979350637452165,6,正常
P001,部品A,2024-01-02,ライン3,199,197,88097.0,98831.0,35320.0,40988.0,10376.0,11113.0,production_cost_styleA_202401.csv,10734.0,5668.0,737.0,133793.0,150932.0,17139.0,0.12810087224294245,-2,超過
P002,部品B,2024-01-02,ライン3,90,84,198148.0,213232.0,37949.0,37294.0,48481.0,44644.0,production_cost_styleA_202401.csv,15084.0,-655.0,-3837.0,284578.0,295170.0,10592.0,0.03722002403558954,-6,正常
P003,部品C,2024-01-02,ライン3,148,136,107205.0,115750.0,41538.0,33595.0,21835.0,24717.0,production_cost_styleA_202401.csv,8545.0,-7943.0,2882.0,170578.0,174062.0,3484.0,0.020424673756287447,-12,正常
P004,部品D,2024-01-02,ライン3,151,152,152870.0,159376.0,64680.0,64595.0,11962.0,13896.0,production_cost_styleA_202401.csv,6506.0,-85.0,1934.0,229512.0,237867.0,8355.0,0.03640332531632333,1,正常
P005,部品E,2024-01-02,ライン3,123,116,170290.0,153304.0,33140.0,36528.0,17605.0,19489.0,production_cost_styleA_202401.csv,-16986.0,3388.0,1884.0,221035.0,209321.0,-11714.0,-0.05299613183432488,-7,正常
P006,ユニットX,2024-01-02,ライン3,85,91,146951.0,151628.0,38536.0,42118.0,27633.0,23103.0,production_cost_styleA_202401.csv,4677.0,3582.0,-4530.0,213120.0,216849.0,3729.0,0.017497184684684686,6,正常
P007,ユニットY,2024-01-02,ライン3,125,122,80119.0,75820.0,67191.0,67239.0,45058.0,40959.0,production_cost_styleA_202401.csv,-4299.0,48.0,-4099.0,192368.0,184018.0,-8350.0,-0.04340638775679947,-3,正常
P008,ユニットZ,2024-01-02,ライン3,92,97,122277.0,114389.0,68389.0,57862.0,39862.0,47243.0,production_cost_styleA_202401.csv,-7888.0,-10527.0,7381.0,230528.0,219494.0,-11034.0,-0.04786403387007218,5,正常
P009,製品P,2024-01-02,ライン3,86,81,151449.0,172394.0,60464.0,61851.0,25896.0,21653.0,production_cost_styleA_202401.csv,20945.0,1387.0,-4243.0,237809.0,255898.0,18089.0,0.07606524563830637,-5,正常
P010,製品Q,2024-01-02,ライン3,151,125,118218.0,122217.0,60370.0,68155.0,36894.0,43391.0,production_cost_styleA_202401.csv,3999.0,7785.0,6497.0,215482.0,233763.0,18281.0,0.08483771266277462,-26,正常
P011,PartA,2024-01-02,ライン3,77,76,142932.0,149226.0,76590.0,81114.0,23120.0,24372.0,production_cost_styleA_202401.csv,6294.0,4524.0,1252.0,242642.0,254712.0,12070.0,0.04974406739146561,-1,正常
P012,PartB,2024-01-02,ライン3,168,161,111244.0,102539.0,28387.0,28303.0,47850.0,40141.0,production_cost_styleA_202401.csv,-8705.0,-84.0,-7709.0,187481.0,170983.0,-16498.0,-0.08799825048938292,-7,正常
P013,PartC,2024-01-02,ライン3,187,185,150573.0,145702.0,64588.0,70848.0,47839.0,41228.0,production_cost_styleA_202401.csv,-4871.0,6260.0,-6611.0,263000.0,257778.0,-5222.0,-0.019855513307984792,-2,正常
P014,SubAsmX,2024-01-02,ライン3,156,166,142348.0,153182.0,76343.0,67709.0,21190.0,20721.0,production_cost_styleA_202401.csv,10834.0,-8634.0,-469.0,239881.0,241612.0,1731.0,0.007216077971994447,10,正常
P015,SubAsmY,2024-01-02,ライン3,110,101,152852.0,144211.0,52668.0,50522.0,49114.0,43020.0,production_cost_styleA_202401.csv,-8641.0,-2146.0,-6094.0,254634.0,237753.0,-16881.0,-0.0662951530431914,-9,正常
P016,FinGoodA,2024-01-02,ライン3,81,86,63751.0,75764.0,32726.0,26843.0,35580.0,33210.0,production_cost_styleA_202401.csv,12013.0,-5883.0,-2370.0,132057.0,135817.0,3760.0,0.02847255351855638,5,正常
P017,FinGoodB,2024-01-02,ライン3,82,77,174473.0,196320.0,53252.0,47565.0,33455.0,37127.0,production_cost_styleA_202401.csv,21847.0,-5687.0,3672.0,261180.0,281012.0,19832.0,0.0759323072210736,-5,正常
P018,FinGoodC,2024-01-02,ライン3,50,54,198129.0,167215.0,52413.0,60096.0,41941.0,35764.0,production_cost_styleA_202401.csv,-30914.0,7683.0,-6177.0,292483.0,263075.0,-29408.0,-0.10054601464016712,4,節約
P019,FinGoodD,2024-01-02,ライン3,141,133,98566.0,108096.0,30455.0,30773.0,12096.0,13285.0,production_cost_styleA_202401.csv,9530.0,318.0,1189.0,141117.0,152154.0,11037.0,0.07821169667722529,-8,正常
P020,FinGoodE,2024-01-02,ライン3,171,166,139050.0,145452.0,47120.0,51403.0,18862.0,21946.0,production_cost_styleA_202401.csv,6402.0,4283.0,3084.0,205032.0,218801.0,13769.0,0.06715537086893753,-5,正常
P001,部品A,2024-01-03,ライン1,183,188,54673.0,53060.0,79915.0,67383.0,43892.0,47621.0,production_cost_styleA_202401.csv,-1613.0,-12532.0,3729.0,178480.0,168064.0,-10416.0,-0.05835948005378754,5,正常
P002,部品B,2024-01-03,ライン1,163,117,141245.0,148763.0,23941.0,24404.0,21001.0,19532.0,production_cost_styleA_202401.csv,7518.0,463.0,-1469.0,186187.0,192699.0,6512.0,0.03497558905831234,-46,正常
P003,部品C,2024-01-03,ライン1,185,185,114530.0,121618.0,67586.0,77797.0,14577.0,14876.0,production_cost_styleA_202401.csv,7088.0,10211.0,299.0,196693.0,214291.0,17598.0,0.08946937613438201,0,正常
P004,部品D,2024-01-03,ライン1,105,113,112072.0,122365.0,69645.0,64423.0,25949.0,24003.0,production_cost_styleA_202401.csv,10293.0,-5222.0,-1946.0,207666.0,210791.0,3125.0,0.015048202401933875,8,正常
P005,部品E,2024-01-03,ライン1,115,107,188448.0,157786.0,24028.0,20150.0,43271.0,47404.0,production_cost_styleA_202401.csv,-30662.0,-3878.0,4133.0,255747.0,225340.0,-30407.0,-0.11889484529632802,-8,節約
P006,ユニットX,2024-01-03,ライン1,83,84,134238.0,126377.0,39779.0,42410.0,14889.0,16380.0,production_cost_styleA_202401.csv,-7861.0,2631.0,1491.0,188906.0,185167.0,-3739.0,-0.019792912877304055,1,正常
P007,ユニットY,2024-01-03,ライン1,63,64,102747.0,109189.0,54675.0,48644.0,18510.0,15609.0,production_cost_styleA_202401.csv,6442.0,-6031.0,-2901.0,175932.0,173442.0,-2490.0,-0.014153195552827229,1,正常
P008,ユニットZ,2024-01-03,ライン1,192,202,136115.0,161952.0,68433.0,77150.0,43806.0,45796.0,production_cost_styleA_202401.csv,25837.0,8717.0,1990.0,248354.0,284898.0,36544.0,0.1471448013722348,10,超過
P009,製品P,2024-01-03,ライン1,192,178,174419.0,188561.0,36047.0,33293.0,17217.0,16114.0,production_cost_styleA_202401.csv,14142.0,-2754.0,-1103.0,227683.0,237968.0,10285.0,0.04517245468480299,-14,正常
P010,製品Q,2024-01-03,ライン1,51,47,148602.0,176646.0,24175.0,20227.0,39639.0,40122.0,production_cost_styleA_202401.csv,28044.0,-3948.0,483.0,212416.0,236995.0,24579.0,0.1157116224766496,-4,超過
P011,PartA,2024-01-03,ライン1,146,141,105508.0,108361.0,63296.0,52788.0,41073.0,33723.0,production_cost_styleA_202401.csv,2853.0,-10508.0,-7350.0,209877.0,194872.0,-15005.0,-0.07149425615956012,-5,正常
P012,PartB,2024-01-03,ライン1,90,81,62237.0,64903.0,46587.0,44988.0,26961.0,23893.0,production_cost_styleA_202401.csv,2666.0,-1599.0,-3068.0,135785.0,133784.0,-2001.0,-0.014736532017527709,-9,正常
P013,PartC,2024-01-03,ライン1,181,178,92487.0,98670.0,60709.0,49670.0,29465.0,28231.0,production_cost_styleA_202401.csv,6183.0,-11039.0,-1234.0,182661.0,176571.0,-6090.0,-0.03334045034243763,-3,正常
P014,SubAsmX,2024-01-03,ライン1,64,49,81685.0,76069.0,28234.0,22675.0,20221.0,22219.0,production_cost_styleA_202401.csv,-5616.0,-5559.0,1998.0,130140.0,120963.0,-9177.0,-0.07051636698939603,-15,正常
P015,SubAsmY,2024-01-03,ライン1,94,94,84517.0,79586.0,53523.0,51320.0,36722.0,40277.0,production_cost_styleA_202401.csv,-4931.0,-2203.0,3555.0,174762.0,171183.0,-3579.0,-0.020479280392762728,0,正常
P016,FinGoodA,2024-01-03,ライン1,161,149,179317.0,194343.0,54546.0,52750.0,32936.0,27866.0,production_cost_styleA_202401.csv,15026.0,-1796.0,-5070.0,266799.0,274959.0,8160.0,0.030584822281942585,-12,正常
P017,FinGoodB,2024-01-03,ライン1,55,51,192142.0,181525.0,47606.0,46401.0,37584.0,31659.0,production_cost_styleA_202401.csv,-10617.0,-1205.0,-5925.0,277332.0,259585.0,-17747.0,-0.063991894191799,-4,正常
P018,FinGoodC,2024-01-03,ライン1,161,161,109365.0,102062.0,38616.0,33490.0,23581.0,23679.0,production_cost_styleA_202401.csv,-7303.0,-5126.0,98.0,171562.0,159231.0,-12331.0,-0.071874890710064,0,正常
P019,FinGoodD,2024-01-03,ライン1,79,74,166434.0,176117.0,41066.0,35279.0,48329.0,40651.0,production_cost_styleA_202401.csv,9683.0,-5787.0,-7678.0,255829.0,252047.0,-3782.0,-0.014783312290631633,-5,正常
P020,FinGoodE,2024-01-03,ライン1,115,117,164032.0,181935.0,59331.0,59191.0,17086.0,18825.0,production_cost_styleA_202401.csv,17903.0,-140.0,1739.0,240449.0,259951.0,19502.0,0.08110659640921776,2,正常
P001,部品A,2024-01-03,ライン2,198,214,134674.0,154296.0,58118.0,61075.0,34981.0,30097.0,production_cost_styleB_202401.csv,19622.0,2957.0,-4884.0,227773.0,245468.0,17695.0,0.07768699538575687,16,正常
P002,部品B,2024-01-03,ライン2,67,68,169449.0,140588.0,55485.0,54636.0,24078.0,19624.0,production_cost_styleB_202401.csv,-28861.0,-849.0,-4454.0,249012.0,214848.0,-34164.0,-0.1371982073153101,1,節約
P003,部品C,2024-01-03,ライン2,144,131,179638.0,180145.0,71318.0,70254.0,34600.0,35352.0,production_cost_styleB_202401.csv,507.0,-1064.0,752.0,285556.0,285751.0,195.0,0.0006828783145862808,-13,正常
P004,部品D,2024-01-03,ライン2,60,63,147776.0,127138.0,39292.0,32406.0,29025.0,24422.0,production_cost_styleB_202401.csv,-20638.0,-6886.0,-4603.0,216093.0,183966.0,-32127.0,-0.1486720995127098,3,節約
P005,部品E,2024-01-03,ライン2,137,125,146919.0,175773.0,22349.0,22564.0,38305.0,39987.0,production_cost_styleB_202401.csv,28854.0,215.0,1682.0,207573.0,238324.0,30751.0,0.14814547171356582,-12,超過
P006,ユニットX,2024-01-03,ライン2,143,136,111315.0,124194.0,40302.0,42677.0,33915.0,28027.0,production_cost_styleB_202401.csv,12879.0,2375.0,-5888.0,185532.0,194898.0,9366.0,0.05048185757712955,-7,正常
P007,ユニットY,2024-01-03,ライン2,74,72,87799.0,91406.0,71094.0,61151.0,48576.0,40445.0,production_cost_styleB_202401.csv,3607.0,-9943.0,-8131.0,207469.0,193002.0,-14467.0,-0.06973089955607825,-2,正常
P008,ユニットZ,2024-01-03,ライン2,86,82,148408.0,160805.0,59728.0,49807.0,15158.0,15515.0,production_cost_styleB_202401.csv,12397.0,-9921.0,357.0,223294.0,226127.0,2833.0,0.01268730910817129,-4,正常
P009,製品P,2024-01-03,ライン2,134,138,174344.0,176184.0,64326.0,68084.0,37417.0,36270.0,production_cost_styleB_202401.csv,1840.0,3758.0,-1147.0,276087.0,280538.0,4451.0,0.01612172974460949,4,正常
P010,製品Q,2024-01-03,ライン2,142,110,192675.0,168938.0,40504.0,48604.0,40646.0,35036.0,production_cost_styleB_202401.csv,-23737.0,8100.0,-5610.0,273825.0,252578.0,-21247.0,-0.07759335341915458,-32,正常
P011,PartA,2024-01-03,ライン2,125,115,165631.0,135006.0,70107.0,65530.0,45347.0,50178.0,production_cost_styleB_202401.csv,-30625.0,-4577.0,4831.0,281085.0,250714.0,-30371.0,-0.10804916662219613,-10,節約
P012,PartB,2024-01-03,ライン2,83,77,77127.0,89549.0,61571.0,67018.0,34990.0,28603.0,production_cost_styleB_202401.csv,12422.0,5447.0,-6387.0,173688.0,185170.0,11482.0,0.06610704251301183,-6,正常
P013,PartC,2024-01-03,ライン2,143,135,116630.0,114247.0,37096.0,37600.0,39941.0,36897.0,production_cost_styleB_202401.csv,-2383.0,504.0,-3044.0,193667.0,188744.0,-4923.0,-0.025419921824575174,-8,正常
P014,SubAsmX,2024-01-03,ライン2,170,159,151746.0,168101.0,54225.0,60258.0,27624.0,27656.0,production_cost_styleB_202401.csv,16355.0,6033.0,32.0,233595.0,256015.0,22420.0,0.09597808172263961,-11,正常
P015,SubAsmY,2024-01-03,ライン2,157,166,170189.0,179800.0,28304.0,32540.0,20000.0,20436.0,production_cost_styleB_202401.csv,9611.0,4236.0,436.0,218493.0,232776.0,14283.0,0.06537051530254974,9,正常
P016,FinGoodA,2024-01-03,ライン2,76,76,68702.0,67309.0,25033.0,25166.0,16412.0,18586.0,production_cost_styleB_202401.csv,-1393.0,133.0,2174.0,110147.0,111061.0,914.0,0.008298001761282649,0,正常
P017,FinGoodB,2024-01-03,ライン2,73,68,117669.0,96642.0,40975.0,41008.0,11067.0,9897.0,production_cost_styleB_202401.csv,-21027.0,33.0,-1170.0,169711.0,147547.0,-22164.0,-0.13059848801786567,-5,節約
P018,FinGoodC,2024-01-03,ライン2,70,63,189624.0,211725.0,70351.0,60153.0,35998.0,32930.0,production_cost_styleB_202401.csv,22101.0,-10198.0,-3068.0,295973.0,304808.0,8835.0,0.029850695840498966,-7,正常
P019,FinGoodD,2024-01-03,ライン2,170,157,155830.0,129603.0,46916.0,42336.0,10210.0,11578.0,production_cost_styleB_202401.csv,-26227.0,-4580.0,1368.0,212956.0,183517.0,-29439.0,-0.13823982418903435,-13,節約
P020,FinGoodE,2024-01-03,ライン2,190,194,113488.0,96322.0,66570.0,59605.0,19506.0,20590.0,production_cost_styleB_202401.csv,-17166.0,-6965.0,1084.0,199564.0,176517.0,-23047.0,-0.11548676113928363,4,節約
P001,部品A,2024-01-03,ライン3,167,151,124974.0,128726.0,52163.0,56723.0,35278.0,32333.0,production_cost_styleB_202401.csv,3752.0,4560.0,-2945.0,212415.0,217782.0,5367.0,0.025266577219122944,-16,正常
P002,部品B,2024-01-03,ライン3,50,47,112485.0,133842.0,59862.0,49510.0,13425.0,13564.0,production_cost_styleB_202401.csv,21357.0,-10352.0,139.0,185772.0,196916.0,11144.0,0.05998751157332644,-3,正常
P003,部品C,2024-01-03,ライン3,179,179,53050.0,50650.0,72400.0,68731.0,11741.0,12903.0,production_cost_styleB_202401.csv,-2400.0,-3669.0,1162.0,137191.0,132284.0,-4907.0,-0.03576765239702313,0,正常
P004,部品D,2024-01-03,ライン3,141,136,159941.0,174988.0,57695.0,53830.0,40860.0,33413.0,production_cost_styleB_202401.csv,15047.0,-3865.0,-7447.0,258496.0,262231.0,3735.0,0.014448966328299085,-5,正常
P005,部品E,2024-01-03,ライン3,189,194,174558.0,173059.0,61081.0,53318.0,49233.0,42042.0,production_cost_styleB_202401.csv,-1499.0,-7763.0,-7191.0,284872.0,268419.0,-16453.0,-0.05775576399224915,5,正常
P006,ユニットX,2024-01-03,ライン3,167,125,168666.0,155853.0,73147.0,70170.0,22624.0,25478.0,production_cost_styleB_202401.csv,-12813.0,-2977.0,2854.0,264437.0,251501.0,-12936.0,-0.048919024191017145,-42,正常
P007,ユニットY,2024-01-03,ライン3,171,179,78666.0,90176.0,41418.0,38634.0,41234.0,35040.0,production_cost_styleB_202401.csv,11510.0,-2784.0,-6194.0,161318.0,163850.0,2532.0,0.015695706616744565,8,正常
P008,ユニットZ,2024-01-03,ライン3,144,141,115960.0,101434.0,77389.0,83334.0,23561.0,22311.0,production_cost_styleB_202401.csv,-14526.0,5945.0,-1250.0,216910.0,207079.0,-9831.0,-0.04532294500023051,-3,正常
P009,製品P,2024-01-03,ライン3,182,166,113675.0,99145.0,45836.0,42055.0,49804.0,41887.0,production_cost_styleB_202401.csv,-14530.0,-3781.0,-7917.0,209315.0,183087.0,-26228.0,-0.12530396770417793,-16,節約
P010,製品Q,2024-01-03,ライン3,133,127,140393.0,132057.0,45567.0,37226.0,37591.0,43155.0,production_cost_styleB_202401.csv,-8336.0,-8341.0,5564.0,223551.0,212438.0,-11113.0,-0.04971125157122983,-6,正常
P011,PartA,2024-01-03,ライン3,140,138,145920.0,155912.0,67489.0,64957.0,12294.0,12359.0,production_cost_styleB_202401.csv,9992.0,-2532.0,65.0,225703.0,233228.0,7525.0,0.03334027460866714,-2,正常
P012,PartB,2024-01-03,ライン3,90,83,141136.0,116704.0,66879.0,74329.0,11392.0,10783.0,production_cost_styleB_202401.csv,-24432.0,7450.0,-609.0,219407.0,201816.0,-17591.0,-0.0801751995150565,-7,正常
P013,PartC,2024-01-03,ライン3,148,134,73016.0,71378.0,46995.0,39042.0,24839.0,21239.0,production_cost_styleB_202401.csv,-1638.0,-7953.0,-3600.0,144850.0,131659.0,-13191.0,-0.09106662064204349,-14,正常
P014,SubAsmX,2024-01-03,ライン3,143,147,87442.0,87408.0,26807.0,25595.0,39427.0,40400.0,production_cost_styleB_202401.csv,-34.0,-1212.0,973.0,153676.0,153403.0,-273.0,-0.0017764647700356595,4,正常
P015,SubAsmY,2024-01-03,ライン3,117,121,82186.0,98578.0,56713.0,49911.0,37759.0,32257.0,production_cost_styleB_202401.csv,16392.0,-6802.0,-5502.0,176658.0,180746.0,4088.0,0.023140757848498228,4,正常
P016,FinGoodA,2024-01-03,ライン3,68,73,116767.0,132905.0,25267.0,23444.0,37277.0,35002.0,production_cost_styleB_202401.csv,16138.0,-1823.0,-2275.0,179311.0,191351.0,12040.0,0.0671459085053343,5,正常
P017,FinGoodB,2024-01-03,ライン3,66,63,94994.0,102601.0,29450.0,25611.0,38383.0,36256.0,production_cost_styleB_202401.csv,7607.0,-3839.0,-2127.0,162827.0,164468.0,1641.0,0.010078181137035012,-3,正常
P018,FinGoodC,2024-01-03,ライン3,107,100,70832.0,72362.0,67422.0,63887.0,11051.0,12394.0,production_cost_styleB_202401.csv,1530.0,-3535.0,1343.0,149305.0,148643.0,-662.0,-0.004433876963263119,-7,正常
P019,FinGoodD,2024-01-03,ライン3,191,205,59862.0,59351.0,43890.0,42324.0,38677.0,37276.0,production_cost_styleB_202401.csv,-511.0,-1566.0,-1401.0,142429.0,138951.0,-3478.0,-0.024419184295333112,14,正常
P020,FinGoodE,2024-01-03,ライン3,197,185,146351.0,137249.0,46998.0,54104.0,37204.0,41375.0,production_cost_styleB_202401.csv,-9102.0,7106.0,4171.0,230553.0,232728.0,2175.0,0.00943383950761864,-12,正常
P001,部品A,2024-01-04,ライン1,200,218,114893.0,97620.0,74643.0,64283.0,12217.0,10578.0,production_cost_styleB_202401.csv,-17273.0,-10360.0,-1639.0,201753.0,172481.0,-29272.0,-0.14508830104137238,18,節約
P002,部品B,2024-01-04,ライン1,132,124,192122.0,159758.0,51134.0,44922.0,21362.0,25261.0,production_cost_styleB_202401.csv,-32364.0,-6212.0,3899.0,264618.0,229941.0,-34677.0,-0.13104550710835997,-8,節約
P003,部品C,2024-01-04,ライン1,120,115,130022.0,152989.0,50154.0,43217.0,16745.0,17809.0,production_cost_styleB_202401.csv,22967.0,-6937.0,1064.0,196921.0,214015.0,17094.0,0.08680638428608427,-5,正常
P004,部品D,2024-01-04,ライン1,136,137,173785.0,183618.0,21702.0,22369.0,11818.0,12533.0,production_cost_styleB_202401.csv,9833.0,667.0,715.0,207305.0,218520.0,11215.0,0.05409903282602928,1,正常
P005,部品E,2024-01-04,ライン1,196,201,124706.0,147484.0,57630.0,57237.0,21587.0,24218.0,production_cost_styleB_202401.csv,22778.0,-393.0,2631.0,203923.0,228939.0,25016.0,0.12267375430922456,5,超過
P006,ユニットX,2024-01-04,ライン1,153,139,58987.0,52003.0,46376.0,48355.0,29370.0,27168.0,production_cost_styleB_202401.csv,-6984.0,1979.0,-2202.0,134733.0,127526.0,-7207.0,-0.05349097845368247,-14,正常
P007,ユニットY,2024-01-04,ライン1,131,140,196306.0,201147.0,27846.0,25831.0,24822.0,24489.0,production_cost_styleB_202401.csv,4841.0,-2015.0,-333.0,248974.0,251467.0,2493.0,0.010013093736695398,9,正常
P008,ユニットZ,2024-01-04,ライン1,118,109,57591.0,55705.0,76723.0,90923.0,44567.0,51738.0,production_cost_styleB_202401.csv,-1886.0,14200.0,7171.0,178881.0,198366.0,19485.0,0.10892716386871719,-9,超過
P009,製品P,2024-01-04,ライン1,133,138,78475.0,77433.0,29561.0,34043.0,49839.0,49786.0,production_cost_styleB_202401.csv,-1042.0,4482.0,-53.0,157875.0,161262.0,3387.0,0.021453681710213775,5,正常
P010,製品Q,2024-01-04,ライン1,73,73,195003.0,159945.0,32909.0,32841.0,24116.0,27804.0,production_cost_styleB_202401.csv,-35058.0,-68.0,3688.0,252028.0,220590.0,-31438.0,-0.12474010824194137,0,節約
P011,PartA,2024-01-04,ライン1,170,153,66125.0,62574.0,28036.0,26951.0,20579.0,16836.0,production_cost_styleB_202401.csv,-3551.0,-1085.0,-3743.0,114740.0,106361.0,-8379.0,-0.07302597176224508,-17,正常
P012,PartB,2024-01-04,ライン1,63,59,132983.0,147048.0,24412.0,22261.0,30170.0,36073.0,production_cost_styleB_202401.csv,14065.0,-2151.0,5903.0,187565.0,205382.0,17817.0,0.09499106976248234,-4,正常
P013,PartC,2024-01-04,ライン1,80,73,105980.0,100283.0,79207.0,67937.0,32313.0,33638.0,production_cost_styleB_202401.csv,-5697.0,-11270.0,1325.0,217500.0,201858.0,-15642.0,-0.07191724137931034,-7,正常
P014,SubAsmX,2024-01-04,ライン1,152,138,70555.0,69342.0,39982.0,41682.0,28950.0,29129.0,production_cost_styleB_202401.csv,-1213.0,1700.0,179.0,139487.0,140153.0,666.0,0.004774638496777477,-14,正常
P015,SubAsmY,2024-01-04,ライン1,133,128,108943.0,113027.0,56990.0,57157.0,43704.0,43874.0,production_cost_styleB_202401.csv,4084.0,167.0,170.0,209637.0,214058.0,4421.0,0.021088834509175383,-5,正常
P016,FinGoodA,2024-01-04,ライン1,175,167,172362.0,205449.0,42101.0,43511.0,36952.0,41339.0,production_cost_styleB_202401.csv,33087.0,1410.0,4387.0,251415.0,290299.0,38884.0,0.15466062088578644,-8,超過
P017,FinGoodB,2024-01-04,ライン1,56,53,148339.0,132172.0,78323.0,64268.0,33139.0,32880.0,production_cost_styleB_202401.csv,-16167.0,-14055.0,-259.0,259801.0,229320.0,-30481.0,-0.11732441368585957,-3,節約
P018,FinGoodC,2024-01-04,ライン1,184,188,176175.0,143165.0,28867.0,34042.0,37229.0,31420.0,production_cost_styleB_202401.csv,-33010.0,5175.0,-5809.0,242271.0,208627.0,-33644.0,-0.1388692827453554,4,節約
P019,FinGoodD,2024-01-04,ライン1,54,53,111944.0,116936.0,32234.0,31867.0,30073.0,34263.0,production_cost_styleB_202401.csv,4992.0,-367.0,4190.0,174251.0,183066.0,8815.0,0.05058794497592553,-1,正常
P020,FinGoodE,2024-01-04,ライン1,65,65,134133.0,127524.0,79887.0,94481.0,29135.0,28665.0,production_cost_styleB_202401.csv,-6609.0,14594.0,-470.0,243155.0,250670.0,7515.0,0.03090621208694043,0,正常
P001,部品A,2024-01-04,ライン2,186,180,165798.0,178619.0,63255.0,66041.0,35732.0,31334.0,production_cost_styleB_202401.csv,12821.0,2786.0,-4398.0,264785.0,275994.0,11209.0,0.04233245840965311,-6,正常
P002,部品B,2024-01-04,ライン2,113,108,191223.0,206896.0,78936.0,84942.0,40847.0,40667.0,production_cost_styleB_202401.csv,15673.0,6006.0,-180.0,311006.0,332505.0,21499.0,0.069127283717999,-5,正常
P003,部品C,2024-01-04,ライン2,172,186,169311.0,181272.0,36407.0,34655.0,14875.0,17732.0,production_cost_styleB_202401.csv,11961.0,-1752.0,2857.0,220593.0,233659.0,13066.0,0.05923125393824827,14,正常
P004,部品D,2024-01-04,ライン2,138,146,93568.0,87818.0,37258.0,36399.0,38566.0,34808.0,production_cost_styleB_202401.csv,-5750.0,-859.0,-3758.0,169392.0,159025.0,-10367.0,-0.06120123736658166,8,正常
P005,部品E,2024-01-04,ライン2,172,183,90670.0,76497.0,53721.0,58897.0,20865.0,18689.0,production_cost_styleB_202401.csv,-14173.0,5176.0,-2176.0,165256.0,154083.0,-11173.0,-0.06761025318294041,11,正常
P006,ユニットX,2024-01-04,ライン2,62,62,145692.0,158359.0,23149.0,19451.0,26532.0,29406.0,production_cost_styleB_202401.csv,12667.0,-3698.0,2874.0,195373.0,207216.0,11843.0,0.060617383159392545,0,正常
P007,ユニットY,2024-01-04,ライン2,51,55,73691.0,72975.0,59174.0,62737.0,45226.0,49855.0,production_cost_styleB_202401.csv,-716.0,3563.0,4629.0,178091.0,185567.0,7476.0,0.04197853906149104,4,正常
P008,ユニットZ,2024-01-04,ライン2,123,126,186191.0,188809.0,25368.0,27632.0,32965.0,38723.0,production_cost_styleB_202401.csv,2618.0,2264.0,5758.0,244524.0,255164.0,10640.0,0.0435131111874499,3,正常
P009,製品P,2024-01-04,ライン2,94,100,190088.0,211984.0,22180.0,19397.0,43448.0,47776.0,production_cost_styleB_202401.csv,21896.0,-2783.0,4328.0,255716.0,279157.0,23441.0,0.0916681005490466,6,正常
P010,製品Q,2024-01-04,ライン2,124,111,135194.0,123544.0,26438.0,31610.0,49320.0,50174.0,production_cost_styleB_202401.csv,-11650.0,5172.0,854.0,210952.0,205328.0,-5624.0,-0.02666009329136486,-13,正常
P011,PartA,2024-01-04,ライン2,176,163,125632.0,117123.0,36370.0,39733.0,42353.0,44865.0,production_cost_styleB_202401.csv,-8509.0,3363.0,2512.0,204355.0,201721.0,-2634.0,-0.012889334736120967,-13,正常
P012,PartB,2024-01-04,ライン2,97,76,94254.0,98437.0,60464.0,63819.0,17726.0,17056.0,production_cost_styleB_202401.csv,4183.0,3355.0,-670.0,172444.0,179312.0,6868.0,0.03982742223562432,-21,正常
P013,PartC,2024-01-04,ライン2,159,145,150388.0,139777.0,31087.0,27954.0,15624.0,14129.0,production_cost_styleB_202401.csv,-10611.0,-3133.0,-1495.0,197099.0,181860.0,-15239.0,-0.07731647547679085,-14,正常
P014,SubAsmX,2024-01-04,ライン2,110,104,99444.0,89959.0,54948.0,51861.0,32915.0,29443.0,production_cost_styleB_202401.csv,-9485.0,-3087.0,-3472.0,187307.0,171263.0,-16044.0,-0.0856561687496997,-6,正常
P015,SubAsmY,2024-01-04,ライン2,80,74,152911.0,169416.0,75386.0,81124.0,45512.0,48037.0,production_cost_styleB_202401.csv,16505.0,5738.0,2525.0,273809.0,298577.0,24768.0,0.090457216526849,-6,正常
P016,FinGoodA,2024-01-04,ライン2,125,118,193604.0,231460.0,48691.0,46230.0,28199.0,30477.0,production_cost_styleB_202401.csv,37856.0,-2461.0,2278.0,270494.0,308167.0,37673.0,0.13927480831367794,-7,超過
P017,FinGoodB,2024-01-04,ライン2,170,180,173841.0,180503.0,65712.0,73265.0,37214.0,37593.0,production_cost_styleB_202401.csv,6662.0,7553.0,379.0,276767.0,291361.0,14594.0,0.05273027492439489,10,正常
P018,FinGoodC,2024-01-04,ライン2,185,169,134625.0,134921.0,23705.0,24395.0,31906.0,27437.0,production_cost_styleB_202401.csv,296.0,690.0,-4469.0,190236.0,186753.0,-3483.0,-0.018308837444016905,-16,正常
P019,FinGoodD,2024-01-04,ライン2,133,131,152044.0,176304.0,63015.0,61641.0,29553.0,24300.0,production_cost_styleB_202401.csv,24260.0,-1374.0,-5253.0,244612.0,262245.0,17633.0,0.07208558860562851,-2,正常
P020,FinGoodE,2024-01-04,ライン2,83,82,58661.0,63900.0,47743.0,45756.0,42277.0,47628.0,production_cost_styleB_202401.csv,5239.0,-1987.0,5351.0,148681.0,157284.0,8603.0,0.05786213436821114,-1,正常
P001,部品A,2024-01-04,ライン3,105,95,101679.0,119355.0,23826.0,19718.0,49765.0,58400.0,production_cost_styleB_202401.csv,17676.0,-4108.0,8635.0,175270.0,197473.0,22203.0,0.12667883836366747,-10,超過
P002,部品B,2024-01-04,ライン3,58,54,70314.0,83359.0,58492.0,55554.0,39172.0,45303.0,production_cost_styleB_202401.csv,13045.0,-2938.0,6131.0,167978.0,184216.0,16238.0,0.0966674207336675,-4,正常
P003,部品C,2024-01-04,ライン3,164,177,106347.0,108019.0,60964.0,64708.0,36472.0,34251.0,production_cost_styleB_202401.csv,1672.0,3744.0,-2221.0,203783.0,206978.0,3195.0,0.015678442264565738,13,正常
P004,部品D,2024-01-04,ライン3,95,92,69102.0,76183.0,78723.0,93791.0,43393.0,42751.0,production_cost_styleB_202401.csv,7081.0,15068.0,-642.0,191218.0,212725.0,21507.0,0.11247372109320253,-3,超過
P005,部品E,2024-01-04,ライン3,189,184,84450.0,73927.0,47638.0,54787.0,16205.0,17926.0,production_cost_styleB_202401.csv,-10523.0,7149.0,1721.0,148293.0,146640.0,-1653.0,-0.011146851166272178,-5,正常
P006,ユニットX,2024-01-04,ライン3,58,57,164908.0,145520.0,73025.0,61368.0,10626.0,8643.0,production_cost_styleB_202401.csv,-19388.0,-11657.0,-1983.0,248559.0,215531.0,-33028.0,-0.13287790826322926,-1,節約
P007,ユニットY,2024-01-04,ライン3,62,56,115844.0,128637.0,52386.0,44845.0,40175.0,48106.0,production_cost_styleB_202401.csv,12793.0,-7541.0,7931.0,208405.0,221588.0,13183.0,0.06325663971593772,-6,正常
P008,ユニットZ,2024-01-04,ライン3,109,114,97836.0,90817.0,55875.0,51444.0,36901.0,31636.0,production_cost_styleB_202401.csv,-7019.0,-4431.0,-5265.0,190612.0,173897.0,-16715.0,-0.08769122615575095,5,正常
P009,製品P,2024-01-04,ライン3,183,175,59144.0,68881.0,76911.0,80787.0,45189.0,43873.0,production_cost_styleB_202401.csv,9737.0,3876.0,-1316.0,181244.0,193541.0,12297.0,0.06784776323630023,-8,正常
P010,製品Q,2024-01-04,ライン3,176,138,146497.0,158001.0,42869.0,41296.0,30979.0,28499.0,production_cost_styleB_202401.csv,11504.0,-1573.0,-2480.0,220345.0,227796.0,7451.0,0.03381515350926956,-38,正常
P011,PartA,2024-01-04,ライン3,97,96,177401.0,199099.0,38044.0,44356.0,38303.0,39259.0,production_cost_styleB_202401.csv,21698.0,6312.0,956.0,253748.0,282714.0,28966.0,0.11415262386304523,-1,超過
P012,PartB,2024-01-04,ライン3,156,144,86429.0,101026.0,32200.0,36671.0,35868.0,30021.0,production_cost_styleB_202401.csv,14597.0,4471.0,-5847.0,154497.0,167718.0,13221.0,0.08557447717431406,-12,正常
P013,PartC,2024-01-04,ライン3,98,77,140745.0,157897.0,22373.0,23157.0,12911.0,13797.0,production_cost_styleB_202401.csv,17152.0,784.0,886.0,176029.0,194851.0,18822.0,0.10692556340148499,-21,超過
P014,SubAsmX,2024-01-04,ライン3,105,112,99945.0,117421.0,77421.0,91731.0,10613.0,8989.0,production_cost_styleB_202401.csv,17476.0,14310.0,-1624.0,187979.0,218141.0,30162.0,0.1604540932763766,7,超過
P015,SubAsmY,2024-01-04,ライン3,172,178,155565.0,144465.0,43798.0,39997.0,19573.0,19309.0,production_cost_styleB_202401.csv,-11100.0,-3801.0,-264.0,218936.0,203771.0,-15165.0,-0.06926681770014982,6,正常
P016,FinGoodA,2024-01-04,ライン3,141,137,182422.0,198651.0,47960.0,52979.0,42113.0,39084.0,production_cost_styleB_202401.csv,16229.0,5019.0,-3029.0,272495.0,290714.0,18219.0,0.06685994238426393,-4,正常
P017,FinGoodB,2024-01-04,ライン3,102,100,134379.0,121520.0,33276.0,39063.0,15837.0,16338.0,production_cost_styleB_202401.csv,-12859.0,5787.0,501.0,183492.0,176921.0,-6571.0,-0.03581082554007804,-2,正常
P018,FinGoodC,2024-01-04,ライン3,156,146,84503.0,86215.0,54187.0,63799.0,19829.0,18541.0,production_cost_styleB_202401.csv,1712.0,9612.0,-1288.0,158519.0,168555.0,10036.0,0.06331102265343587,-10,正常
P019,FinGoodD,2024-01-04,ライン3,175,179,123589.0,107239.0,30094.0,32746.0,41799.0,41604.0,production_cost_styleB_202401.csv,-16350.0,2652.0,-195.0,195482.0,181589.0,-13893.0,-0.07107048219273386,4,正常
P020,FinGoodE,2024-01-04,ライン3,188,205,128592.0,144948.0,70344.0,57640.0,12973.0,10412.0,production_cost_styleB_202401.csv,16356.0,-12704.0,-2561.0,211909.0,213000.0,1091.0,0.005148436357115554,17,正常
P001,部品A,2024-01-05,ライン1,85,80,156075.0,148159.0,20548.0,21517.0,30229.0,32246.0,production_cost_styleB_202401.csv,-7916.0,969.0,2017.0,206852.0,201922.0,-4930.0,-0.023833465472898496,-5,正常
P002,部品B,2024-01-05,ライン1,173,156,129832.0,141371.0,44680.0,45319.0,10669.0,9759.0,production_cost_styleB_202401.csv,11539.0,639.0,-910.0,185181.0,196449.0,11268.0,0.06084857517779902,-17,正常
P003,部品C,2024-01-05,ライン1,178,184,170925.0,143325.0,74586.0,64111.0,14281.0,12521.0,production_cost_styleB_202401.csv,-27600.0,-10475.0,-1760.0,259792.0,219957.0,-39835.0,-0.15333420582619942,6,節約
P004,部品D,2024-01-05,ライン1,184,178,169240.0,166465.0,24741.0,22200.0,48372.0,52188.0,production_cost_styleB_202401.csv,-2775.0,-2541.0,3816.0,242353.0,240853.0,-1500.0,-0.006189318886087649,-6,正常
P005,部品E,2024-01-05,ライン1,126,134,148060.0,123986.0,71493.0,68040.0,40383.0,41235.0,production_cost_styleB_202401.csv,-24074.0,-3453.0,852.0,259936.0,233261.0,-26675.0,-0.10262141450203127,8,節約
P006,ユニットX,2024-01-05,ライン1,64,66,62403.0,58191.0,70720.0,84222.0,35796.0,42581.0,production_cost_styleB_202401.csv,-4212.0,13502.0,6785.0,168919.0,184994.0,16075.0,0.09516395432130192,2,正常
P007,ユニットY,2024-01-05,ライン1,185,175,185191.0,168234.0,61537.0,71978.0,32671.0,35082.0,production_cost_styleB_202401.csv,-16957.0,10441.0,2411.0,279399.0,275294.0,-4105.0,-0.014692250151217435,-10,正常
P008,ユニットZ,2024-01-05,ライン1,121,122,54935.0,65076.0,75726.0,78362.0,22579.0,24858.0,production_cost_styleB_202401.csv,10141.0,2636.0,2279.0,153240.0,168296.0,15056.0,0.09825110937092144,1,正常
P009,製品P,2024-01-05,ライン1,151,144,134594.0,144125.0,54002.0,54878.0,43978.0,41934.0,production_cost_styleB_202401.csv,9531.0,876.0,-2044.0,232574.0,240937.0,8363.0,0.03595844763387137,-7,正常
P010,製品Q,2024-01-05,ライン1,85,88,61764.0,51825.0,64727.0,57792.0,23834.0,19792.0,production_cost_styleB_202401.csv,-9939.0,-6935.0,-4042.0,150325.0,129409.0,-20916.0,-0.1391385331781141,3,節約
P011,PartA,2024-01-05,ライン1,151,145,145118.0,129338.0,67013.0,68435.0,28022.0,26626.0,production_cost_styleB_202401.csv,-15780.0,1422.0,-1396.0,240153.0,224399.0,-15754.0,-0.06559984676435439,-6,正常
P012,PartB,2024-01-05,ライン1,97,100,62854.0,68212.0,57117.0,47568.0,41922.0,36124.0,production_cost_styleB_202401.csv,5358.0,-9549.0,-5798.0,161893.0,151904.0,-9989.0,-0.06170124712001136,3,正常
P013,PartC,2024-01-05,ライン1,89,85,65983.0,62285.0,20312.0,18441.0,22331.0,19048.0,production_cost_styleB_202401.csv,-3698.0,-1871.0,-3283.0,108626.0,99774.0,-8852.0,-0.08149061918877616,-4,正常
P014,SubAsmX,2024-01-05,ライン1,97,98,126866.0,129618.0,26198.0,27213.0,13585.0,15130.0,production_cost_styleB_202401.csv,2752.0,1015.0,1545.0,166649.0,171961.0,5312.0,0.03187537879015176,1,正常
P015,SubAsmY,2024-01-05,ライン1,148,118,166875.0,199765.0,63491.0,56957.0,32381.0,32655.0,production_cost_styleB_202401.csv,32890.0,-6534.0,274.0,262747.0,289377.0,26630.0,0.1013522514053443,-30,超過
P016,FinGoodA,2024-01-05,ライン1,147,140,90261.0,82172.0,28756.0,26453.0,16688.0,18575.0,production_cost_styleB_202401.csv,-8089.0,-2303.0,1887.0,135705.0,127200.0,-8505.0,-0.06267270918536531,-7,正常
P017,FinGoodB,2024-01-05,ライン1,142,134,143755.0,121155.0,55628.0,51282.0,17822.0,21021.0,production_cost_styleB_202401.csv,-22600.0,-4346.0,3199.0,217205.0,193458.0,-23747.0,-0.10932989572063258,-8,節約
P018,FinGoodC,2024-01-05,ライン1,135,131,179330.0,202538.0,46413.0,49217.0,27225.0,28253.0,production_cost_styleB_202401.csv,23208.0,2804.0,1028.0,252968.0,280008.0,27040.0,0.10689099016476392,-4,超過
P019,FinGoodD,2024-01-05,ライン1,126,137,80128.0,95151.0,38851.0,35610.0,48583.0,52372.0,production_cost_styleB_202401.csv,15023.0,-3241.0,3789.0,167562.0,183133.0,15571.0,0.0929267972451988,11,正常
P020,FinGoodE,2024-01-05,ライン1,175,184,98883.0,93544.0,36818.0,43181.0,41435.0,36459.0,production_cost_styleB_202401.csv,-5339.0,6363.0,-4976.0,177136.0,173184.0,-3952.0,-0.02231054105320206,9,正常
P001,部品A,2024-01-05,ライン2,189,199,54037.0,47761.0,63633.0,71210.0,47719.0,54042.0,production_cost_styleB_202401.csv,-6276.0,7577.0,6323.0,165389.0,173013.0,7624.0,0.04609738253450955,10,正常
P002,部品B,2024-01-05,ライン2,67,70,111371.0,99879.0,49958.0,53129.0,35333.0,38375.0,production_cost_styleB_202401.csv,-11492.0,3171.0,3042.0,196662.0,191383.0,-5279.0,-0.026843009834131657,3,正常
P003,部品C,2024-01-05,ライン2,146,138,121885.0,142381.0,44048.0,47426.0,30265.0,30793.0,production_cost_styleB_202401.csv,20496.0,3378.0,528.0,196198.0,220600.0,24402.0,0.12437435651739569,-8,超過
P004,部品D,2024-01-05,ライン2,142,150,139073.0,125067.0,74864.0,79796.0,14375.0,12456.0,production_cost_styleB_202401.csv,-14006.0,4932.0,-1919.0,228312.0,217319.0,-10993.0,-0.048149024142401624,8,正常
P005,部品E,2024-01-05,ライン2,61,62,147012.0,164431.0,78009.0,65713.0,23264.0,19529.0,production_cost_styleB_202401.csv,17419.0,-12296.0,-3735.0,248285.0,249673.0,1388.0,0.005590349799625431,1,正常
P006,ユニットX,2024-01-05,ライン2,106,106,137078.0,131109.0,54514.0,60453.0,27831.0,28817.0,production_cost_styleB_202401.csv,-5969.0,5939.0,986.0,219423.0,220379.0,956.0,0.004356881457276585,0,正常
P007,ユニットY,2024-01-05,ライン2,178,195,122416.0,102137.0,37726.0,42726.0,46822.0,51132.0,production_cost_styleB_202401.csv,-20279.0,5000.0,4310.0,206964.0,195995.0,-10969.0,-0.052999555478247425,17,正常
P008,ユニットZ,2024-01-05,ライン2,139,137,81030.0,79026.0,48976.0,52830.0,29047.0,26942.0,production_cost_styleB_202401.csv,-2004.0,3854.0,-2105.0,159053.0,158798.0,-255.0,-0.0016032391718483776,-2,正常
P009,製品P,2024-01-05,ライン2,126,110,53388.0,59795.0,40585.0,47564.0,14375.0,15757.0,production_cost_styleB_202401.csv,6407.0,6979.0,1382.0,108348.0,123116.0,14768.0,0.136301546867501,-16,超過
P010,製品Q,2024-01-05,ライン2,182,169,133977.0,128889.0,77508.0,67725.0,19274.0,20357.0,production_cost_styleB_202401.csv,-5088.0,-9783.0,1083.0,230759.0,216971.0,-13788.0,-0.05975064894543658,-13,正常
P011,PartA,2024-01-05,ライン2,160,167,182465.0,146296.0,46975.0,41616.0,27182.0,24772.0,production_cost_styleB_202401.csv,-36169.0,-5359.0,-2410.0,256622.0,212684.0,-43938.0,-0.1712168091589965,7,節約
P012,PartB,2024-01-05,ライン2,66,69,130533.0,110377.0,41948.0,44812.0,17883.0,17808.0,production_cost_styleB_202401.csv,-20156.0,2864.0,-75.0,190364.0,172997.0,-17367.0,-0.09123048475552101,3,正常
P013,PartC,2024-01-05,ライン2,130,132,138051.0,144532.0,40875.0,46005.0,43821.0,47431.0,production_cost_styleB_202401.csv,6481.0,5130.0,3610.0,222747.0,237968.0,15221.0,0.06833313131041047,2,正常
P014,SubAsmX,2024-01-05,ライン2,126,128,150817.0,127708.0,38791.0,36825.0,19543.0,16739.0,production_cost_styleB_202401.csv,-23109.0,-1966.0,-2804.0,209151.0,181272.0,-27879.0,-0.1332960397033722,2,節約
P015,SubAsmY,2024-01-05,ライン2,149,138,107556.0,115878.0,31145.0,32955.0,35420.0,42503.0,production_cost_styleB_202401.csv,8322.0,1810.0,7083.0,174121.0,191336.0,17215.0,0.09886802855485553,-11,正常
P016,FinGoodA,2024-01-05,ライン2,192,183,78065.0,89479.0,70519.0,83265.0,34776.0,34562.0,production_cost_styleB_202401.csv,11414.0,12746.0,-214.0,183360.0,207306.0,23946.0,0.1305955497382199,-9,超過
P017,FinGoodB,2024-01-05,ライン2,99,108,125816.0,121570.0,49698.0,56455.0,37388.0,37219.0,production_cost_styleB_202401.csv,-4246.0,6757.0,-169.0,212902.0,215244.0,2342.0,0.011000366365745742,9,正常
P018,FinGoodC,2024-01-05,ライン2,71,75,83079.0,76057.0,21962.0,24428.0,18994.0,19493.0,production_cost_styleB_202401.csv,-7022.0,2466.0,499.0,124035.0,119978.0,-4057.0,-0.0327085096948442,4,正常
P019,FinGoodD,2024-01-05,ライン2,176,162,67131.0,63556.0,66507.0,75089.0,42931.0,35060.0,production_cost_styleB_202401.csv,-3575.0,8582.0,-7871.0,176569.0,173705.0,-2864.0,-0.016220287819492665,-14,正常
P020,FinGoodE,2024-01-05,ライン2,162,177,65362.0,60074.0,69804.0,83746.0,40054.0,39248.0,production_cost_styleB_202401.csv,-5288.0,13942.0,-806.0,175220.0,183068.0,7848.0,0.04478940760187193,15,正常
P001,部品A,2024-01-05,ライン3,139,127,179794.0,158929.0,27043.0,29613.0,42476.0,45689.0,production_cost_styleC_202401.csv,-20865.0,2570.0,3213.0,249313.0,234231.0,-15082.0,-0.060494238166481494,-12,正常
P002,部品B,2024-01-05,ライン3,159,147,80993.0,76160.0,32417.0,29578.0,12374.0,12566.0,production_cost_styleC_202401.csv,-4833.0,-2839.0,192.0,125784.0,118304.0,-7480.0,-0.059467022832792725,-12,正常
P003,部品C,2024-01-05,ライン3,132,126,135910.0,157664.0,77144.0,86870.0,30577.0,26120.0,production_cost_styleC_202401.csv,21754.0,9726.0,-4457.0,243631.0,270654.0,27023.0,0.11091774035323912,-6,超過
P004,部品D,2024-01-05,ライン3,155,170,180057.0,162028.0,27613.0,29948.0,44643.0,50509.0,production_cost_styleC_202401.csv,-18029.0,2335.0,5866.0,252313.0,242485.0,-9828.0,-0.038951619615319066,15,正常
P005,部品E,2024-01-05,ライン3,150,152,90308.0,95135.0,44854.0,51673.0,28080.0,23509.0,production_cost_styleC_202401.csv,4827.0,6819.0,-4571.0,163242.0,170317.0,7075.0,0.04334056186520626,2,正常
P006,ユニットX,2024-01-05,ライン3,181,188,181598.0,187551.0,47282.0,54259.0,29522.0,33621.0,production_cost_styleC_202401.csv,5953.0,6977.0,4099.0,258402.0,275431.0,17029.0,0.06590119271522667,7,正常
P007,ユニットY,2024-01-05,ライン3,73,72,149622.0,151682.0,41493.0,36810.0,12533.0,12181.0,production_cost_styleC_202401.csv,2060.0,-4683.0,-352.0,203648.0,200673.0,-2975.0,-0.014608540226272785,-1,正常
P008,ユニットZ,2024-01-05,ライン3,104,100,92539.0,105584.0,52839.0,58932.0,15224.0,17624.0,production_cost_styleC_202401.csv,13045.0,6093.0,2400.0,160602.0,182140.0,21538.0,0.13410791895493207,-4,超過
P009,製品P,2024-01-05,ライン3,62,53,175505.0,151495.0,20977.0,20612.0,47177.0,56459.0,production_cost_styleC_202401.csv,-24010.0,-365.0,9282.0,243659.0,228566.0,-15093.0,-0.06194312543349517,-9,正常
P010,製品Q,2024-01-05,ライン3,159,164,69787.0,81866.0,59000.0,53667.0,16359.0,17371.0,production_cost_styleC_202401.csv,12079.0,-5333.0,1012.0,145146.0,152904.0,7758.0,0.05344963002769625,5,正常
P011,PartA,2024-01-05,ライン3,114,98,147337.0,160655.0,23107.0,25466.0,35024.0,34033.0,production_cost_styleC_202401.csv,13318.0,2359.0,-991.0,205468.0,220154.0,14686.0,0.07147585025405416,-16,正常
P012,PartB,2024-01-05,ライン3,73,65,121521.0,130270.0,27962.0,22473.0,19048.0,20538.0,production_cost_styleC_202401.csv,8749.0,-5489.0,1490.0,168531.0,173281.0,4750.0,0.028184725658780878,-8,正常
P013,PartC,2024-01-05,ライン3,80,78,69826.0,76272.0,24250.0,20393.0,25323.0,23432.0,production_cost_styleC_202401.csv,6446.0,-3857.0,-1891.0,119399.0,120097.0,698.0,0.005845945108417993,-2,正常
P014,SubAsmX,2024-01-05,ライン3,126,132,162974.0,139691.0,27989.0,28330.0,49718.0,39943.0,production_cost_styleC_202401.csv,-23283.0,341.0,-9775.0,240681.0,207964.0,-32717.0,-0.13593511743760414,6,節約
P015,SubAsmY,2024-01-05,ライン3,92,96,144212.0,154974.0,29082.0,33270.0,26468.0,22093.0,production_cost_styleC_202401.csv,10762.0,4188.0,-4375.0,199762.0,210337.0,10575.0,0.05293799621549644,4,正常
P016,FinGoodA,2024-01-05,ライン3,75,69,159501.0,178072.0,41092.0,36947.0,27176.0,28748.0,production_cost_styleC_202401.csv,18571.0,-4145.0,1572.0,227769.0,243767.0,15998.0,0.07023782867730025,-6,正常
P017,FinGoodB,2024-01-05,ライン3,113,115,141139.0,160779.0,66738.0,70967.0,37619.0,34634.0,production_cost_styleC_202401.csv,19640.0,4229.0,-2985.0,245496.0,266380.0,20884.0,0.0850685958223352,2,正常
P018,FinGoodC,2024-01-05,ライン3,182,170,108763.0,121543.0,58770.0,52643.0,41352.0,39465.0,production_cost_styleC_202401.csv,12780.0,-6127.0,-1887.0,208885.0,213651.0,4766.0,0.022816382219881755,-12,正常
P019,FinGoodD,2024-01-05,ライン3,111,113,129243.0,151676.0,78662.0,67082.0,49475.0,56616.0,production_cost_styleC_202401.csv,22433.0,-11580.0,7141.0,257380.0,275374.0,17994.0,0.06991219208951745,2,正常
P020,FinGoodE,2024-01-05,ライン3,195,196,75916.0,62949.0,48261.0,49947.0,49495.0,39869.0,production_cost_styleC_202401.csv,-12967.0,1686.0,-9626.0,173672.0,152765.0,-20907.0,-0.12038209959003178,1,節約
P001,部品A,2024-01-06,ライン1,105,75,168393.0,168464.0,50397.0,48692.0,35143.0,37980.0,production_cost_styleC_202401.csv,71.0,-1705.0,2837.0,253933.0,255136.0,1203.0,0.004737470120071042,-30,正常
P002,部品B,2024-01-06,ライン1,71,71,72902.0,85177.0,25016.0,29762.0,13161.0,11347.0,production_cost_styleC_202401.csv,12275.0,4746.0,-1814.0,111079.0,126286.0,15207.0,0.1369025648412391,0,超過
P003,部品C,2024-01-06,ライン1,133,136,175179.0,189101.0,60863.0,66462.0,12645.0,14397.0,production_cost_styleC_202401.csv,13922.0,5599.0,1752.0,248687.0,269960.0,21273.0,0.08554126271176217,3,正常
P004,部品D,2024-01-06,ライン1,64,69,67398.0,71875.0,56738.0,60325.0,12201.0,10618.0,production_cost_styleC_202401.csv,4477.0,3587.0,-1583.0,136337.0,142818.0,6481.0,0.04753661881954275,5,正常
P005,部品E,2024-01-06,ライン1,53,55,74575.0,83016.0,77181.0,83997.0,30920.0,26801.0,production_cost_styleC_202401.csv,8441.0,6816.0,-4119.0,182676.0,193814.0,11138.0,0.0609713372309444,2,正常
P006,ユニットX,2024-01-06,ライン1,82,88,159940.0,149385.0,27083.0,26318.0,45996.0,46435.0,production_cost_styleC_202401.csv,-10555.0,-765.0,439.0,233019.0,222138.0,-10881.0,-0.04669576300645012,6,正常
P007,ユニットY,2024-01-06,ライン1,117,118,61561.0,61551.0,47312.0,48578.0,24405.0,23113.0,production_cost_styleC_202401.csv,-10.0,1266.0,-1292.0,133278.0,133242.0,-36.0,-0.0002701120965200558,1,正常
P008,ユニットZ,2024-01-06,ライン1,115,124,151118.0,121050.0,26920.0,30782.0,39631.0,31900.0,production_cost_styleC_202401.csv,-30068.0,3862.0,-7731.0,217669.0,183732.0,-33937.0,-0.15591103923847677,9,節約
P009,製品P,2024-01-06,ライン1,61,59,72513.0,74046.0,75870.0,88432.0,44299.0,48564.0,production_cost_styleC_202401.csv,1533.0,12562.0,4265.0,192682.0,211042.0,18360.0,0.09528653428965861,-2,正常
P010,製品Q,2024-01-06,ライン1,157,149,187378.0,192740.0,39196.0,33229.0,43040.0,46024.0,production_cost_styleC_202401.csv,5362.0,-5967.0,2984.0,269614.0,271993.0,2379.0,0.00882372577091694,-8,正常
P011,PartA,2024-01-06,ライン1,63,66,197212.0,194459.0,77245.0,70519.0,12757.0,14517.0,production_cost_styleC_202401.csv,-2753.0,-6726.0,1760.0,287214.0,279495.0,-7719.0,-0.026875430863398025,3,正常
P012,PartB,2024-01-06,ライン1,133,108,105338.0,115432.0,37496.0,33635.0,41380.0,39200.0,production_cost_styleC_202401.csv,10094.0,-3861.0,-2180.0,184214.0,188267.0,4053.0,0.022001585112966442,-25,正常
P013,PartC,2024-01-06,ライン1,176,185,159870.0,137524.0,52794.0,61925.0,41839.0,33871.0,production_cost_styleC_202401.csv,-22346.0,9131.0,-7968.0,254503.0,233320.0,-21183.0,-0.08323281061519903,9,正常
P014,SubAsmX,2024-01-06,ライン1,188,200,181580.0,193005.0,77059.0,87817.0,10058.0,10973.0,production_cost_styleC_202401.csv,11425.0,10758.0,915.0,268697.0,291795.0,23098.0,0.08596299921472886,12,正常
P015,SubAsmY,2024-01-06,ライン1,76,83,112972.0,96812.0,77671.0,70831.0,48902.0,39981.0,production_cost_styleC_202401.csv,-16160.0,-6840.0,-8921.0,239545.0,207624.0,-31921.0,-0.13325679934876536,7,節約
P016,FinGoodA,2024-01-06,ライン1,109,109,155127.0,129370.0,42350.0,35499.0,48982.0,41802.0,production_cost_styleC_202401.csv,-25757.0,-6851.0,-7180.0,246459.0,206671.0,-39788.0,-0.16143861656502703,0,節約
P017,FinGoodB,2024-01-06,ライン1,150,126,115247.0,104229.0,77853.0,72092.0,19471.0,21814.0,production_cost_styleC_202401.csv,-11018.0,-5761.0,2343.0,212571.0,198135.0,-14436.0,-0.06791142724078073,-24,正常
P018,FinGoodC,2024-01-06,ライン1,133,126,61203.0,63277.0,32163.0,27730.0,41197.0,35667.0,production_cost_styleC_202401.csv,2074.0,-4433.0,-5530.0,134563.0,126674.0,-7889.0,-0.0586268142059853,-7,正常
P019,FinGoodD,2024-01-06,ライン1,169,156,103743.0,102222.0,66220.0,75557.0,28077.0,23477.0,production_cost_styleC_202401.csv,-1521.0,9337.0,-4600.0,198040.0,201256.0,3216.0,0.01623914360735205,-13,正常
P020,FinGoodE,2024-01-06,ライン1,127,132,56049.0,46885.0,70155.0,63090.0,23112.0,21778.0,production_cost_styleC_202401.csv,-9164.0,-7065.0,-1334.0,149316.0,131753.0,-17563.0,-0.11762302767285489,5,節約
P001,部品A,2024-01-06,ライン2,181,140,173013.0,197554.0,30432.0,31113.0,48084.0,49048.0,production_cost_styleC_202401.csv,24541.0,681.0,964.0,251529.0,277715.0,26186.0,0.10410727987627669,-41,超過
P002,部品B,2024-01-06,ライン2,74,78,70969.0,84668.0,20717.0,17657.0,43215.0,48810.0,production_cost_styleC_202401.csv,13699.0,-3060.0,5595.0,134901.0,151135.0,16234.0,0.12034010125944211,4,超過
P003,部品C,2024-01-06,ライン2,145,157,62606.0,51963.0,55167.0,66138.0,46697.0,41051.0,production_cost_styleC_202401.csv,-10643.0,10971.0,-5646.0,164470.0,159152.0,-5318.0,-0.03233416428527999,12,正常
P004,部品D,2024-01-06,ライン2,163,149,177091.0,208421.0,68533.0,56215.0,14901.0,17429.0,production_cost_styleC_202401.csv,31330.0,-12318.0,2528.0,260525.0,282065.0,21540.0,0.08267920545053258,-14,正常
P005,部品E,2024-01-06,ライン2,160,156,54422.0,48212.0,60993.0,53360.0,16912.0,15423.0,production_cost_styleC_202401.csv,-6210.0,-7633.0,-1489.0,132327.0,116995.0,-15332.0,-0.11586448721727237,-4,節約
P006,ユニットX,2024-01-06,ライン2,88,75,86868.0,88629.0,37706.0,31085.0,26480.0,24147.0,production_cost_styleC_202401.csv,1761.0,-6621.0,-2333.0,151054.0,143861.0,-7193.0,-0.04761873237385306,-13,正常
P007,ユニットY,2024-01-06,ライン2,85,87,169580.0,172541.0,34949.0,28232.0,49763.0,47425.0,production_cost_styleC_202401.csv,2961.0,-6717.0,-2338.0,254292.0,248198.0,-6094.0,-0.023964576156544445,2,正常
P008,ユニットZ,2024-01-06,ライン2,141,148,101605.0,92275.0,53939.0,43714.0,22864.0,23752.0,production_cost_styleC_202401.csv,-9330.0,-10225.0,888.0,178408.0,159741.0,-18667.0,-0.10463095825299314,7,節約
P009,製品P,2024-01-06,ライン2,57,60,58789.0,65064.0,79492.0,95378.0,31177.0,37088.0,production_cost_styleC_202401.csv,6275.0,15886.0,5911.0,169458.0,197530.0,28072.0,0.1656575670667658,3,超過
P010,製品Q,2024-01-06,ライン2,75,71,130053.0,143790.0,67474.0,79560.0,39482.0,40678.0,production_cost_styleC_202401.csv,13737.0,12086.0,1196.0,237009.0,264028.0,27019.0,0.1139998902995245,-4,超過
P011,PartA,2024-01-06,ライン2,149,159,176783.0,198436.0,30566.0,32982.0,33701.0,39281.0,production_cost_styleC_202401.csv,21653.0,2416.0,5580.0,241050.0,270699.0,29649.0,0.12299937772246422,10,超過
P012,PartB,2024-01-06,ライン2,57,55,135148.0,153349.0,28526.0,32068.0,47935.0,56954.0,production_cost_styleC_202401.csv,18201.0,3542.0,9019.0,211609.0,242371.0,30762.0,0.14537188871928888,-2,超過
P013,PartC,2024-01-06,ライン2,188,187,63539.0,64211.0,33957.0,27175.0,18752.0,21887.0,production_cost_styleC_202401.csv,672.0,-6782.0,3135.0,116248.0,113273.0,-2975.0,-0.02559183813915078,-1,正常
P014,SubAsmX,2024-01-06,ライン2,101,97,76619.0,63120.0,68145.0,58543.0,44729.0,48391.0,production_cost_styleC_202401.csv,-13499.0,-9602.0,3662.0,189493.0,170054.0,-19439.0,-0.10258426432638673,-4,節約
P015,SubAsmY,2024-01-06,ライン2,86,91,179100.0,210760.0,77634.0,74391.0,24944.0,20963.0,production_cost_styleC_202401.csv,31660.0,-3243.0,-3981.0,281678.0,306114.0,24436.0,0.08675153899133052,5,正常
P016,FinGoodA,2024-01-06,ライン2,127,139,159853.0,159034.0,46212.0,42835.0,35571.0,38518.0,production_cost_styleC_202401.csv,-819.0,-3377.0,2947.0,241636.0,240387.0,-1249.0,-0.005168931781688159,12,正常
P017,FinGoodB,2024-01-06,ライン2,193,209,168049.0,146226.0,33394.0,30814.0,33558.0,36088.0,production_cost_styleC_202401.csv,-21823.0,-2580.0,2530.0,235001.0,213128.0,-21873.0,-0.09307619967574605,16,正常
P018,FinGoodC,2024-01-06,ライン2,82,73,155301.0,172125.0,54370.0,55838.0,44030.0,38431.0,production_cost_styleC_202401.csv,16824.0,1468.0,-5599.0,253701.0,266394.0,12693.0,0.05003133610037012,-9,正常
P019,FinGoodD,2024-01-06,ライン2,131,143,83134.0,71184.0,53933.0,59226.0,47468.0,42493.0,production_cost_styleC_202401.csv,-11950.0,5293.0,-4975.0,184535.0,172903.0,-11632.0,-0.06303411276993524,12,正常
P020,FinGoodE,2024-01-06,ライン2,131,141,63309.0,73100.0,62538.0,61203.0,35564.0,32224.0,production_cost_styleC_202401.csv,9791.0,-1335.0,-3340.0,161411.0,166527.0,5116.0,0.03169548543779544,10,正常
P001,部品A,2024-01-06,ライン3,113,109,168053.0,163900.0,63225.0,61193.0,11926.0,10334.0,production_cost_styleC_202401.csv,-4153.0,-2032.0,-1592.0,243204.0,235427.0,-7777.0,-0.03197727011068897,-4,正常
P002,部品B,2024-01-06,ライン3,155,151,131904.0,151111.0,26086.0,27661.0,29180.0,31364.0,production_cost_styleC_202401.csv,19207.0,1575.0,2184.0,187170.0,210136.0,22966.0,0.12270128759950846,-4,超過
P003,部品C,2024-01-06,ライン3,91,96,55012.0,46314.0,21205.0,19863.0,20445.0,23618.0,production_cost_styleC_202401.csv,-8698.0,-1342.0,3173.0,96662.0,89795.0,-6867.0,-0.07104136061740912,5,正常
P004,部品D,2024-01-06,ライン3,91,91,184719.0,193116.0,25586.0,25410.0,33761.0,27428.0,production_cost_styleC_202401.csv,8397.0,-176.0,-6333.0,244066.0,245954.0,1888.0,0.007735612498258668,0,正常
P005,部品E,2024-01-06,ライン3,92,90,58033.0,55927.0,39866.0,40729.0,48976.0,57313.0,production_cost_styleC_202401.csv,-2106.0,863.0,8337.0,146875.0,153969.0,7094.0,0.0482995744680851,-2,正常
P006,ユニットX,2024-01-06,ライン3,188,179,85632.0,97273.0,22978.0,19794.0,32871.0,31041.0,production_cost_styleC_202401.csv,11641.0,-3184.0,-1830.0,141481.0,148108.0,6627.0,0.046840211759882955,-9,正常
P007,ユニットY,2024-01-06,ライン3,159,144,143764.0,126912.0,48820.0,51518.0,13879.0,16528.0,production_cost_styleC_202401.csv,-16852.0,2698.0,2649.0,206463.0,194958.0,-11505.0,-0.05572427020822133,-15,正常
P008,ユニットZ,2024-01-06,ライン3,171,164,109620.0,91692.0,49346.0,50217.0,36442.0,31848.0,production_cost_styleC_202401.csv,-17928.0,871.0,-4594.0,195408.0,173757.0,-21651.0,-0.11079894374846475,-7,節約
P009,製品P,2024-01-06,ライン3,147,145,89494.0,81209.0,47903.0,39504.0,19050.0,20972.0,production_cost_styleC_202401.csv,-8285.0,-8399.0,1922.0,156447.0,141685.0,-14762.0,-0.09435783364334248,-2,正常
P010,製品Q,2024-01-06,ライン3,74,58,131217.0,134031.0,78242.0,88908.0,33589.0,37867.0,production_cost_styleC_202401.csv,2814.0,10666.0,4278.0,243048.0,260806.0,17758.0,0.07306375695335901,-16,正常
P011,PartA,2024-01-06,ライン3,157,162,190454.0,175130.0,54363.0,52075.0,19426.0,22176.0,production_cost_styleC_202401.csv,-15324.0,-2288.0,2750.0,264243.0,249381.0,-14862.0,-0.056243684790136354,5,正常
P012,PartB,2024-01-06,ライン3,58,62,170068.0,144236.0,60652.0,66892.0,34811.0,30256.0,production_cost_styleC_202401.csv,-25832.0,6240.0,-4555.0,265531.0,241384.0,-24147.0,-0.0909385344837326,4,正常
P013,PartC,2024-01-06,ライン3,92,97,68928.0,67147.0,45402.0,54433.0,49531.0,52052.0,production_cost_styleC_202401.csv,-1781.0,9031.0,2521.0,163861.0,173632.0,9771.0,0.05962980819108879,5,正常
P014,SubAsmX,2024-01-06,ライン3,116,121,171102.0,174664.0,25222.0,28820.0,32255.0,32509.0,production_cost_styleC_202401.csv,3562.0,3598.0,254.0,228579.0,235993.0,7414.0,0.032435175584808754,5,正常
P015,SubAsmY,2024-01-06,ライン3,53,54,128384.0,110318.0,45176.0,46765.0,26578.0,29325.0,production_cost_styleC_202401.csv,-18066.0,1589.0,2747.0,200138.0,186408.0,-13730.0,-0.0686026641617284,1,正常
P016,FinGoodA,2024-01-06,ライン3,75,75,65149.0,61080.0,37166.0,35841.0,31425.0,29955.0,production_cost_styleC_202401.csv,-4069.0,-1325.0,-1470.0,133740.0,126876.0,-6864.0,-0.05132346343651862,0,正常
P017,FinGoodB,2024-01-06,ライン3,174,173,75830.0,81314.0,44178.0,42442.0,34730.0,33282.0,production_cost_styleC_202401.csv,5484.0,-1736.0,-1448.0,154738.0,157038.0,2300.0,0.01486383435225995,-1,正常
P018,FinGoodC,2024-01-06,ライン3,134,121,121283.0,113417.0,36115.0,40357.0,24898.0,23015.0,production_cost_styleC_202401.csv,-7866.0,4242.0,-1883.0,182296.0,176789.0,-5507.0,-0.03020911045771712,-13,正常
P019,FinGoodD,2024-01-06,ライン3,175,181,195874.0,214970.0,33677.0,37369.0,22019.0,20441.0,production_cost_styleC_202401.csv,19096.0,3692.0,-1578.0,251570.0,272780.0,21210.0,0.08431052987240131,6,正常
P020,FinGoodE,2024-01-06,ライン3,156,143,116257.0,115535.0,74806.0,75300.0,26287.0,24961.0,production_cost_styleC_202401.csv,-722.0,494.0,-1326.0,217350.0,215796.0,-1554.0,-0.00714975845410628,-13,正常
P001,部品A,2024-01-07,ライン1,64,59,96668.0,110252.0,50408.0,58056.0,15426.0,12519.0,production_cost_styleC_202401.csv,13584.0,7648.0,-2907.0,162502.0,180827.0,18325.0,0.11276784285731868,-5,超過
P002,部品B,2024-01-07,ライン1,99,93,58644.0,55369.0,21984.0,19338.0,12022.0,11389.0,production_cost_styleC_202401.csv,-3275.0,-2646.0,-633.0,92650.0,86096.0,-6554.0,-0.07073934160820292,-6,正常
P003,部品C,2024-01-07,ライン1,168,172,68581.0,71161.0,21834.0,19018.0,24899.0,28588.0,production_cost_styleC_202401.csv,2580.0,-2816.0,3689.0,115314.0,118767.0,3453.0,0.02994432592746761,4,正常
P004,部品D,2024-01-07,ライン1,200,193,175648.0,146869.0,35520.0,28806.0,43235.0,35447.0,production_cost_styleC_202401.csv,-28779.0,-6714.0,-7788.0,254403.0,211122.0,-43281.0,-0.17012771075812785,-7,節約
P005,部品E,2024-01-07,ライン1,196,184,83203.0,88248.0,33507.0,33685.0,18269.0,20934.0,production_cost_styleC_202401.csv,5045.0,178.0,2665.0,134979.0,142867.0,7888.0,0.0584387200972003,-12,正常
P006,ユニットX,2024-01-07,ライン1,52,48,75980.0,79273.0,68052.0,80111.0,18951.0,20563.0,production_cost_styleC_202401.csv,3293.0,12059.0,1612.0,162983.0,179947.0,16964.0,0.10408447506795188,-4,超過
P007,ユニットY,2024-01-07,ライン1,120,117,102306.0,109558.0,35120.0,39676.0,28668.0,27489.0,production_cost_styleC_202401.csv,7252.0,4556.0,-1179.0,166094.0,176723.0,10629.0,0.0639938829819259,-3,正常
P008,ユニットZ,2024-01-07,ライン1,76,72,194973.0,202286.0,70363.0,64246.0,32458.0,34853.0,production_cost_styleC_202401.csv,7313.0,-6117.0,2395.0,297794.0,301385.0,3591.0,0.012058671430586244,-4,正常
P009,製品P,2024-01-07,ライン1,173,163,146089.0,158425.0,71689.0,82941.0,20446.0,18800.0,production_cost_styleC_202401.csv,12336.0,11252.0,-1646.0,238224.0,260166.0,21942.0,0.09210658875680032,-10,正常
P010,製品Q,2024-01-07,ライン1,88,83,58516.0,56271.0,71439.0,66283.0,42401.0,36294.0,production_cost_styleC_202401.csv,-2245.0,-5156.0,-6107.0,172356.0,158848.0,-13508.0,-0.07837267051915803,-5,正常
P011,PartA,2024-01-07,ライン1,56,61,88914.0,72387.0,45114.0,48869.0,25531.0,26267.0,production_cost_styleC_202401.csv,-16527.0,3755.0,736.0,159559.0,147523.0,-12036.0,-0.07543291196359968,5,正常
P012,PartB,2024-01-07,ライン1,98,102,152948.0,179907.0,58299.0,54999.0,29029.0,26709.0,production_cost_styleC_202401.csv,26959.0,-3300.0,-2320.0,240276.0,261615.0,21339.0,0.08881036807671178,4,正常
P013,PartC,2024-01-07,ライン1,93,100,77170.0,69720.0,25856.0,29045.0,15118.0,16708.0,production_cost_styleC_202401.csv,-7450.0,3189.0,1590.0,118144.0,115473.0,-2671.0,-0.022608003791982665,7,正常
P014,SubAsmX,2024-01-07,ライン1,96,103,148165.0,170179.0,33335.0,32275.0,18933.0,21863.0,production_cost_styleC_202401.csv,22014.0,-1060.0,2930.0,200433.0,224317.0,23884.0,0.11916201423917219,7,超過
P015,SubAsmY,2024-01-07,ライン1,145,139,177682.0,183622.0,48232.0,56804.0,44656.0,36997.0,production_cost_styleC_202401.csv,5940.0,8572.0,-7659.0,270570.0,277423.0,6853.0,0.025328011235539787,-6,正常
P016,FinGoodA,2024-01-07,ライン1,99,106,107250.0,122447.0,37901.0,32404.0,12162.0,10704.0,production_cost_styleC_202401.csv,15197.0,-5497.0,-1458.0,157313.0,165555.0,8242.0,0.05239236426741591,7,正常
P017,FinGoodB,2024-01-07,ライン1,154,166,197997.0,172682.0,28593.0,23799.0,44496.0,41517.0,production_cost_styleC_202401.csv,-25315.0,-4794.0,-2979.0,271086.0,237998.0,-33088.0,-0.12205720693801966,12,節約
P018,FinGoodC,2024-01-07,ライン1,95,86,117808.0,121402.0,32563.0,28114.0,40942.0,45612.0,production_cost_styleC_202401.csv,3594.0,-4449.0,4670.0,191313.0,195128.0,3815.0,0.019941143571006674,-9,正常
P019,FinGoodD,2024-01-07,ライン1,72,71,114411.0,91743.0,45742.0,46360.0,29096.0,31781.0,production_cost_styleC_202401.csv,-22668.0,618.0,2685.0,189249.0,169884.0,-19365.0,-0.10232550766450549,-1,節約
P020,FinGoodE,2024-01-07,ライン1,53,55,129655.0,141770.0,21075.0,18767.0,10165.0,11698.0,production_cost_styleC_202401.csv,12115.0,-2308.0,1533.0,160895.0,172235.0,11340.0,0.07048074831411791,2,正常
P001,部品A,2024-01-07,ライン2,129,125,138301.0,127137.0,30021.0,27509.0,42954.0,46868.0,production_cost_styleC_202401.csv,-11164.0,-2512.0,3914.0,211276.0,201514.0,-9762.0,-0.04620496412275885,-4,正常
P002,部品B,2024-01-07,ライン2,184,198,199321.0,188099.0,40564.0,35508.0,46055.0,54310.0,production_cost_styleC_202401.csv,-11222.0,-5056.0,8255.0,285940.0,277917.0,-8023.0,-0.028058333916206196,14,正常
P003,部品C,2024-01-07,ライン2,153,115,197732.0,198098.0,32671.0,27747.0,10877.0,11795.0,production_cost_styleC_202401.csv,366.0,-4924.0,918.0,241280.0,237640.0,-3640.0,-0.015086206896551725,-38,正常
P004,部品D,2024-01-07,ライン2,59,60,165687.0,135729.0,57388.0,48392.0,33757.0,38296.0,production_cost_styleC_202401.csv,-29958.0,-8996.0,4539.0,256832.0,222417.0,-34415.0,-0.13399809992524295,1,節約
P005,部品E,2024-01-07,ライン2,62,60,107038.0,92187.0,52837.0,56962.0,28976.0,30486.0,production_cost_styleC_202401.csv,-14851.0,4125.0,1510.0,188851.0,179635.0,-9216.0,-0.04880037701680161,-2,正常
P006,ユニットX,2024-01-07,ライン2,127,116,128046.0,123889.0,57368.0,66515.0,38029.0,38205.0,production_cost_styleC_202401.csv,-4157.0,9147.0,176.0,223443.0,228609.0,5166.0,0.02311999033310509,-11,正常
P007,ユニットY,2024-01-07,ライン2,80,84,124661.0,141191.0,56540.0,67240.0,41118.0,38782.0,production_cost_styleC_202401.csv,16530.0,10700.0,-2336.0,222319.0,247213.0,24894.0,0.11197423522056145,4,超過
P008,ユニットZ,2024-01-07,ライン2,154,139,124453.0,116020.0,32462.0,26005.0,47325.0,50574.0,production_cost_styleC_202401.csv,-8433.0,-6457.0,3249.0,204240.0,192599.0,-11641.0,-0.056996670583627104,-15,正常
P009,製品P,2024-01-07,ライン2,78,80,72372.0,78844.0,25405.0,21353.0,30468.0,27493.0,production_cost_styleC_202401.csv,6472.0,-4052.0,-2975.0,128245.0,127690.0,-555.0,-0.0043276540995750325,2,正常
P010,製品Q,2024-01-07,ライン2,109,119,89619.0,103031.0,23005.0,26246.0,42527.0,40149.0,production_cost_styleC_202401.csv,13412.0,3241.0,-2378.0,155151.0,169426.0,14275.0,0.09200714142996178,10,正常
P011,PartA,2024-01-07,ライン2,130,120,177687.0,151986.0,73418.0,77740.0,10387.0,9675.0,production_cost_styleC_202401.csv,-25701.0,4322.0,-712.0,261492.0,239401.0,-22091.0,-0.0844805959646949,-10,正常
P012,PartB,2024-01-07,ライン2,162,154,159960.0,135252.0,42357.0,40667.0,23709.0,23297.0,production_cost_styleC_202401.csv,-24708.0,-1690.0,-412.0,226026.0,199216.0,-26810.0,-0.1186146726482794,-8,節約
P013,PartC,2024-01-07,ライン2,148,147,113261.0,96612.0,73167.0,79794.0,16671.0,19882.0,production_cost_styleC_202401.csv,-16649.0,6627.0,3211.0,203099.0,196288.0,-6811.0,-0.03353536945036657,-1,正常
P014,SubAsmX,2024-01-07,ライン2,90,97,122401.0,127852.0,54137.0,60182.0,27527.0,28753.0,production_cost_styleC_202401.csv,5451.0,6045.0,1226.0,204065.0,216787.0,12722.0,0.062342880944797,7,正常
P015,SubAsmY,2024-01-07,ライン2,83,82,183139.0,194492.0,46441.0,37383.0,12533.0,14380.0,production_cost_styleC_202401.csv,11353.0,-9058.0,1847.0,242113.0,246255.0,4142.0,0.017107714166525546,-1,正常
P016,FinGoodA,2024-01-07,ライン2,184,186,134752.0,126036.0,78674.0,79401.0,36794.0,39746.0,production_cost_styleC_202401.csv,-8716.0,727.0,2952.0,250220.0,245183.0,-5037.0,-0.020130285348892975,2,正常
P017,FinGoodB,2024-01-07,ライン2,74,77,122289.0,105103.0,59823.0,67634.0,35656.0,41248.0,production_cost_styleC_202401.csv,-17186.0,7811.0,5592.0,217768.0,213985.0,-3783.0,-0.017371698321149112,3,正常
P018,FinGoodC,2024-01-07,ライン2,63,58,125835.0,108994.0,48157.0,53001.0,29833.0,27693.0,production_cost_styleC_202401.csv,-16841.0,4844.0,-2140.0,203825.0,189688.0,-14137.0,-0.06935851833680853,-5,正常
P019,FinGoodD,2024-01-07,ライン2,134,121,83406.0,74565.0,58599.0,57640.0,26131.0,29280.0,production_cost_styleC_202401.csv,-8841.0,-959.0,3149.0,168136.0,161485.0,-6651.0,-0.039557263167911694,-13,正常
P020,FinGoodE,2024-01-07,ライン2,164,135,97409.0,78620.0,78840.0,75795.0,39810.0,32418.0,production_cost_styleC_202401.csv,-18789.0,-3045.0,-7392.0,216059.0,186833.0,-29226.0,-0.13526860718600012,-29,節約
P001,部品A,2024-01-07,ライン3,190,137,140630.0,141100.0,57144.0,50443.0,22184.0,23706.0,production_cost_styleC_202401.csv,470.0,-6701.0,1522.0,219958.0,215249.0,-4709.0,-0.02140863255712454,-53,正常
P002,部品B,2024-01-07,ライン3,137,124,83438.0,87435.0,47268.0,46760.0,32406.0,34443.0,production_cost_styleC_202401.csv,3997.0,-508.0,2037.0,163112.0,168638.0,5526.0,0.03387856196968954,-13,正常
P003,部品C,2024-01-07,ライン3,165,173,83262.0,98730.0,40481.0,37113.0,43195.0,43575.0,production_cost_styleC_202401.csv,15468.0,-3368.0,380.0,166938.0,179418.0,12480.0,0.07475829349818496,8,正常
P004,部品D,2024-01-07,ライン3,77,57,71067.0,59894.0,63011.0,65805.0,38862.0,34005.0,production_cost_styleC_202401.csv,-11173.0,2794.0,-4857.0,172940.0,159704.0,-13236.0,-0.07653521452526887,-20,正常
P005,部品E,2024-01-07,ライン3,150,159,78587.0,64331.0,40276.0,42423.0,40286.0,43060.0,production_cost_styleC_202401.csv,-14256.0,2147.0,2774.0,159149.0,149814.0,-9335.0,-0.05865572513807815,9,正常
P006,ユニットX,2024-01-07,ライン3,81,80,148769.0,148699.0,77371.0,78311.0,15385.0,12607.0,production_cost_styleC_202401.csv,-70.0,940.0,-2778.0,241525.0,239617.0,-1908.0,-0.007899803332988304,-1,正常
P007,ユニットY,2024-01-07,ライン3,160,159,126250.0,130217.0,75270.0,82209.0,17088.0,14548.0,production_cost_styleC_202401.csv,3967.0,6939.0,-2540.0,218608.0,226974.0,8366.0,0.03826941374515114,-1,正常
P008,ユニットZ,2024-01-07,ライン3,149,152,98277.0,102561.0,72883.0,78496.0,26747.0,24053.0,production_cost_styleC_202401.csv,4284.0,5613.0,-2694.0,197907.0,205110.0,7203.0,0.03639588291470236,3,正常
P009,製品P,2024-01-07,ライン3,151,165,117927.0,127362.0,28002.0,30785.0,26510.0,24378.0,production_cost_styleC_202401.csv,9435.0,2783.0,-2132.0,172439.0,182525.0,10086.0,0.05849024872563631,14,正常
P010,製品Q,2024-01-07,ライン3,190,198,190327.0,199780.0,57955.0,53100.0,18036.0,16919.0,production_cost_styleC_202401.csv,9453.0,-4855.0,-1117.0,266318.0,269799.0,3481.0,0.013070840123461425,8,正常
P011,PartA,2024-01-07,ライン3,83,85,193749.0,179984.0,50234.0,42506.0,37772.0,35540.0,production_cost_styleC_202401.csv,-13765.0,-7728.0,-2232.0,281755.0,258030.0,-23725.0,-0.08420436194566201,2,正常
P012,PartB,2024-01-07,ライン3,172,187,156519.0,158641.0,60455.0,69583.0,45755.0,44334.0,production_cost_styleC_202401.csv,2122.0,9128.0,-1421.0,262729.0,272558.0,9829.0,0.037411172729314233,15,正常
P013,PartC,2024-01-07,ライン3,53,47,71799.0,78984.0,60215.0,52049.0,17996.0,16460.0,production_cost_styleC_202401.csv,7185.0,-8166.0,-1536.0,150010.0,147493.0,-2517.0,-0.01677888140790614,-6,正常
P014,SubAsmX,2024-01-07,ライン3,114,104,167654.0,158177.0,32240.0,31629.0,31647.0,33117.0,production_cost_styleC_202401.csv,-9477.0,-611.0,1470.0,231541.0,222923.0,-8618.0,-0.0372201899447614,-10,正常
P015,SubAsmY,2024-01-07,ライン3,193,202,134191.0,150230.0,34256.0,31346.0,41372.0,44094.0,production_cost_styleC_202401.csv,16039.0,-2910.0,2722.0,209819.0,225670.0,15851.0,0.07554606589489035,9,正常
P016,FinGoodA,2024-01-07,ライン3,147,160,196373.0,158117.0,38759.0,34904.0,32085.0,33632.0,production_cost_styleC_202401.csv,-38256.0,-3855.0,1547.0,267217.0,226653.0,-40564.0,-0.15180171920199687,13,節約
P017,FinGoodB,2024-01-07,ライン3,163,176,155694.0,158597.0,58858.0,61292.0,40204.0,44645.0,production_cost_styleC_202401.csv,2903.0,2434.0,4441.0,254756.0,264534.0,9778.0,0.038381824176859425,13,正常
P018,FinGoodC,2024-01-07,ライン3,99,92,152399.0,153243.0,31219.0,29685.0,16952.0,16467.0,production_cost_styleC_202401.csv,844.0,-1534.0,-485.0,200570.0,199395.0,-1175.0,-0.005858303834072892,-7,正常
P019,FinGoodD,2024-01-07,ライン3,192,178,176902.0,207860.0,20339.0,16596.0,28653.0,33566.0,production_cost_styleC_202401.csv,30958.0,-3743.0,4913.0,225894.0,258022.0,32128.0,0.14222599980521838,-14,超過
P020,FinGoodE,2024-01-07,ライン3,63,64,176471.0,180012.0,38069.0,31565.0,41596.0,45052.0,production_cost_styleC_202401.csv,3541.0,-6504.0,3456.0,256136.0,256629.0,493.0,0.0019247587219289753,1,正常
